; generated by Slic3r 1.2.9 on 2016-02-11 at 16:12:16

; external perimeters extrusion width = 0.30mm
; perimeters extrusion width = 0.30mm
; infill extrusion width = 0.50mm
; solid infill extrusion width = 0.30mm
; top infill extrusion width = 0.30mm

M107
M190 S50 ; set bed temperature
M201 X1000 Y1000 E600
M109 S210
M92 E161.3
G28
G92 E0.0
G1 X8.0 F2000
G1 Y60.0 E4.0  F1000.0
G1 Y100.0 E8.5  F1000.0
G92 E0.0
G21 ; set units to millimeters
G90 ; use absolute coordinates
M83 ; use relative distances for extrusion
G1 E-1.50000 F1800.00000
G1 Z0.200 F6000.000
G1 X89.164 Y79.119 F6000.000
G1 E1.50000 F1800.00000
G1 E0.15284 F1800.000 ; pressure advance
G1 X90.224 Y78.150 E0.07503 F2400.000
G1 X91.400 Y77.872 E0.06313
G1 X108.600 Y77.872 E0.89861
G1 X109.982 Y78.264 E0.07503
G1 X110.951 Y79.324 E0.07503
G1 X111.229 Y80.500 E0.06313
G1 X111.229 Y119.500 E2.03755
G1 X110.836 Y120.882 E0.07503
G1 X109.776 Y121.851 E0.07503
G1 X108.600 Y122.129 E0.06313
G1 X91.400 Y122.129 E0.89861
G1 X90.019 Y121.736 E0.07503
G1 X89.050 Y120.676 E0.07503
G1 X88.772 Y119.500 E0.06313
G1 X88.772 Y80.500 E2.03755
G1 X89.148 Y79.176 E0.07190
G1 E-0.15284 F1800.000 ; pressure discharge
G1 E-1.50000 F1800.00000
G1 X100.668 Y109.666 F6000.000
G1 E1.50000 F1800.00000
G1 E0.00640 F1800.000 ; pressure advance
G1 X99.326 Y109.660 E0.02870 F1200.000
G1 X98.657 Y108.503 E0.02857
G1 X99.332 Y107.334 E0.02884
G1 X100.675 Y107.340 E0.02870
G1 X101.343 Y108.498 E0.02857
G1 X100.698 Y109.614 E0.02756
G1 X100.520 Y109.408 F6000.000
G1 X99.474 Y109.404 E0.02236 F1200.000
G1 X98.954 Y108.503 E0.02224
G1 X99.480 Y107.592 E0.02248
G1 X100.526 Y107.597 E0.02236
G1 X101.046 Y108.498 E0.02224
G1 X100.550 Y109.356 E0.02120
G1 X100.372 Y109.151 F6000.000
G1 X99.623 Y109.147 E0.01601 F1200.000
G1 X99.251 Y108.503 E0.01591
G1 X99.628 Y107.850 E0.01612
G1 X100.377 Y107.853 E0.01601
G1 X100.749 Y108.498 E0.01591
G1 X100.402 Y109.099 E0.01483
G1 X100.302 Y109.544 F6000.000
G1 E-0.00640 F1800.000 ; pressure discharge
G1 E-1.50000 F1800.00000
G1 X107.936 Y118.836 F6000.000
G1 E1.50000 F1800.00000
G1 X92.064 Y118.836 E0.33928 F1200.000
G1 X92.064 Y81.164 E0.80528
G1 X107.936 Y81.164 E0.33928
G1 X107.936 Y118.776 E0.80400
G1 X108.193 Y119.093 F6000.000
G1 X91.807 Y119.093 E0.35027 F1200.000
G1 X91.807 Y80.907 E0.81627
G1 X108.193 Y80.907 E0.35027
G1 X108.193 Y119.033 E0.81499
G1 X108.450 Y119.350 F6000.000
G1 X91.550 Y119.350 E0.36126 F1200.000
G1 X91.550 Y80.650 E0.82726
G1 X108.450 Y80.650 E0.36126
G1 X108.450 Y119.290 E0.82598
G1 X108.104 Y119.150 F6000.000
G1 E-1.50000 F1800.00000
G1 X92.316 Y81.416 F6000.000
G1 E1.50000 F1800.00000
G1 E0.01681 F1800.000 ; pressure advance
G1 X107.684 Y81.416 E0.33284 F1920.000
G1 X107.684 Y118.584 E0.80500
G1 X92.316 Y118.584 E0.33284
G1 X92.316 Y81.476 E0.80370
G1 X92.577 Y81.677 F6000.000
G1 X107.424 Y81.677 E0.32156 F1920.000
G1 X107.424 Y118.324 E0.79371
G1 X92.577 Y118.324 E0.32156
G1 X92.577 Y81.737 E0.79241
G1 X92.837 Y81.937 F6000.000
G1 X107.163 Y81.937 E0.31028 F1920.000
G1 X107.163 Y118.063 E0.78243
G1 X92.837 Y118.063 E0.31028
G1 X92.837 Y81.997 E0.78113
G1 X93.098 Y82.198 F6000.000
G1 X106.903 Y82.198 E0.29900 F1920.000
G1 X106.903 Y117.803 E0.77115
G1 X93.098 Y117.803 E0.29900
G1 X93.098 Y82.258 E0.76985
G1 X93.358 Y82.458 F6000.000
G1 X106.642 Y82.458 E0.28771 F1920.000
G1 X106.642 Y117.542 E0.75987
G1 X93.358 Y117.542 E0.28771
G1 X93.358 Y82.518 E0.75857
G1 X93.619 Y82.719 F6000.000
G1 X106.382 Y82.719 E0.27643 F1920.000
G1 X106.382 Y117.282 E0.74858
G1 X93.619 Y117.282 E0.27643
G1 X93.619 Y82.779 E0.74728
G1 X93.879 Y82.979 F6000.000
G1 X106.121 Y82.979 E0.26515 F1920.000
G1 X106.121 Y117.021 E0.73730
G1 X93.879 Y117.021 E0.26515
G1 X93.879 Y83.039 E0.73600
G1 X94.140 Y83.240 F6000.000
G1 X105.861 Y83.240 E0.25386 F1920.000
G1 X105.861 Y116.761 E0.72602
G1 X94.140 Y116.761 E0.25386
G1 X94.140 Y83.300 E0.72472
G1 X94.400 Y83.500 F6000.000
G1 X105.600 Y83.500 E0.24258 F1920.000
G1 X105.600 Y116.500 E0.71473
G1 X94.400 Y116.500 E0.24258
G1 X94.400 Y83.560 E0.71343
G1 X94.661 Y83.761 F6000.000
G1 X105.340 Y83.761 E0.23130 F1920.000
G1 X105.340 Y116.240 E0.70345
G1 X94.661 Y116.240 E0.23130
G1 X94.661 Y83.821 E0.70215
G1 X94.921 Y84.021 F6000.000
G1 X105.079 Y84.021 E0.22002 F1920.000
G1 X105.079 Y115.979 E0.69217
G1 X94.921 Y115.979 E0.22002
G1 X94.921 Y84.081 E0.69087
G1 X95.181 Y84.281 F6000.000
G1 X104.819 Y84.281 E0.20873 F1920.000
G1 X104.819 Y107.903 E0.51160
G1 X104.628 Y107.954 E0.00427
G1 X102.479 Y104.231 E0.09310
G1 X97.537 Y104.209 E0.10704
G1 X95.372 Y107.959 E0.09378
G1 X95.181 Y107.908 E0.00427
G1 X95.181 Y84.341 E0.51041
G1 X95.442 Y84.542 F6000.000
G1 X104.558 Y84.542 E0.19745 F1920.000
G1 X104.558 Y106.931 E0.48491
G1 X104.368 Y106.982 E0.00427
G1 X102.630 Y103.971 E0.07529
G1 X97.387 Y103.948 E0.11355
G1 X95.632 Y106.987 E0.07600
G1 X95.442 Y106.936 E0.00427
G1 X95.442 Y84.602 E0.48372
G1 X95.702 Y84.802 F6000.000
G1 X104.298 Y84.802 E0.18617 F1920.000
G1 X104.298 Y105.959 E0.45821
G1 X104.107 Y106.010 E0.00427
G1 X102.781 Y103.712 E0.05747
G1 X97.237 Y103.687 E0.12007
G1 X95.893 Y106.015 E0.05822
G1 X95.702 Y105.964 E0.00427
G1 X95.702 Y84.862 E0.45702
G1 X95.963 Y85.063 F6000.000
G1 X104.038 Y85.063 E0.17488 F1920.000
G1 X104.038 Y104.987 E0.43152
G1 X103.847 Y105.038 E0.00427
G1 X102.931 Y103.452 E0.03966
G1 X97.087 Y103.426 E0.12658
G1 X96.153 Y105.043 E0.04044
G1 X95.963 Y104.992 E0.00427
G1 X95.963 Y85.123 E0.43033
G1 X96.223 Y85.323 F6000.000
G1 X103.777 Y85.323 E0.16360 F1920.000
G1 X103.777 Y104.014 E0.40482
G1 X103.587 Y104.065 E0.00427
G1 X103.082 Y103.192 E0.02185
G1 X96.937 Y103.165 E0.13310
G1 X96.414 Y104.071 E0.02266
G1 X96.223 Y104.020 E0.00427
G1 X96.223 Y85.383 E0.40363
G1 X96.484 Y85.584 F6000.000
G1 X103.517 Y85.584 E0.15232 F1920.000
G1 X103.517 Y103.042 E0.37812
G1 X103.326 Y103.093 E0.00427
G1 X103.233 Y102.932 E0.00403
G1 X96.787 Y102.903 E0.13961
G1 X96.674 Y103.099 E0.00488
G1 X96.484 Y103.047 E0.00427
G1 X96.484 Y85.644 E0.37694
G1 X96.744 Y85.844 F6000.000
G1 X103.256 Y85.844 E0.14103 F1920.000
G1 X103.256 Y102.672 E0.36446
G1 X96.744 Y102.643 E0.14104
G1 X96.744 Y85.904 E0.36253
G1 X97.005 Y86.105 F6000.000
G1 X102.996 Y86.105 E0.12975 F1920.000
G1 X102.996 Y102.410 E0.35315
G1 X97.005 Y102.383 E0.12975
G1 X97.005 Y86.165 E0.35127
G1 X97.265 Y86.365 F6000.000
G1 X102.735 Y86.365 E0.11847 F1920.000
G1 X102.735 Y102.149 E0.34184
G1 X97.265 Y102.124 E0.11847
G1 X97.265 Y86.425 E0.34001
G1 X97.526 Y86.626 F6000.000
G1 X102.475 Y86.626 E0.10719 F1920.000
G1 X102.475 Y101.887 E0.33053
G1 X97.526 Y101.865 E0.10719
G1 X97.526 Y86.686 E0.32876
G1 X97.786 Y86.886 F6000.000
G1 X102.214 Y86.886 E0.09590 F1920.000
G1 X102.214 Y101.625 E0.31922
G1 X97.786 Y101.606 E0.09590
G1 X97.786 Y86.946 E0.31750
G1 X98.047 Y87.147 F6000.000
G1 X101.954 Y87.147 E0.08462 F1920.000
G1 X101.954 Y101.364 E0.30792
G1 X98.047 Y101.346 E0.08462
G1 X98.047 Y87.207 E0.30624
G1 X98.307 Y87.407 F6000.000
G1 X101.693 Y87.407 E0.07334 F1920.000
G1 X101.693 Y101.102 E0.29661
G1 X98.307 Y101.087 E0.07334
G1 X98.307 Y87.467 E0.29498
G1 X98.568 Y87.668 F6000.000
G1 X101.433 Y87.668 E0.06205 F1920.000
G1 X101.433 Y100.840 E0.28530
G1 X98.568 Y100.828 E0.06206
G1 X98.568 Y87.728 E0.28372
G1 X98.828 Y87.928 F6000.000
G1 X101.172 Y87.928 E0.05077 F1920.000
G1 X101.172 Y100.579 E0.27399
G1 X98.828 Y100.568 E0.05077
G1 X98.828 Y87.988 E0.27247
G1 X99.089 Y88.189 F6000.000
G1 X100.912 Y88.189 E0.03949 F1920.000
G1 X100.912 Y100.317 E0.26268
G1 X99.089 Y100.309 E0.03949
G1 X99.089 Y88.249 E0.26121
G1 X99.349 Y88.449 F6000.000
G1 X100.651 Y88.449 E0.02821 F1920.000
G1 X100.651 Y100.055 E0.25138
G1 X99.349 Y100.050 E0.02821
G1 X99.349 Y88.509 E0.24995
G1 X99.610 Y88.709 F6000.000
G1 X100.391 Y88.709 E0.01692 F1920.000
G1 X100.391 Y99.794 E0.24007
G1 X99.610 Y99.790 E0.01692
G1 X99.610 Y88.769 E0.23869
G1 X99.870 Y88.970 F6000.000
G1 X100.130 Y88.970 E0.00564 F1920.000
G1 X100.130 Y99.532 E0.22876
G1 X99.870 Y99.531 E0.00564
G1 X99.870 Y89.030 E0.22744
G1 E-0.01681 F1800.000 ; pressure discharge
G1 E-1.50000 F1800.00000
G1 X97.687 Y104.470 F6000.000
G1 E1.50000 F1800.00000
G1 X102.328 Y104.491 E0.10053 F1920.000
G1 X104.642 Y108.498 E0.10020
G1 X102.313 Y112.530 E0.10085
G1 X97.672 Y112.509 E0.10052
G1 X95.359 Y108.503 E0.10020
G1 X97.657 Y104.522 E0.09955
G1 X97.837 Y104.731 F6000.000
G1 X102.178 Y104.751 E0.09401 F1920.000
G1 X104.341 Y108.498 E0.09370
G1 X102.163 Y112.269 E0.09432
G1 X97.823 Y112.250 E0.09401
G1 X95.660 Y108.503 E0.09370
G1 X97.807 Y104.783 E0.09302
G1 X97.987 Y104.993 F6000.000
G1 X102.027 Y105.011 E0.08750 F1920.000
G1 X104.040 Y108.498 E0.08721
G1 X102.013 Y112.008 E0.08778
G1 X97.974 Y111.990 E0.08750
G1 X95.960 Y108.503 E0.08721
G1 X97.957 Y105.045 E0.08648
G1 X98.137 Y105.254 F6000.000
G1 X101.876 Y105.270 E0.08098 F1920.000
G1 X103.739 Y108.498 E0.08071
G1 X101.863 Y111.747 E0.08125
G1 X98.124 Y111.730 E0.08098
G1 X96.261 Y108.503 E0.08071
G1 X98.107 Y105.306 E0.07995
G1 X98.287 Y105.515 F6000.000
G1 X101.725 Y105.530 E0.07447 F1920.000
G1 X103.438 Y108.498 E0.07421
G1 X101.713 Y111.485 E0.07472
G1 X98.275 Y111.470 E0.07447
G1 X96.562 Y108.503 E0.07421
G1 X98.257 Y105.567 E0.07342
G1 X98.437 Y105.776 F6000.000
G1 X101.574 Y105.790 E0.06795 F1920.000
G1 X103.138 Y108.498 E0.06771
G1 X101.563 Y111.224 E0.06819
G1 X98.426 Y111.210 E0.06795
G1 X96.863 Y108.503 E0.06771
G1 X98.407 Y105.828 E0.06689
G1 X98.587 Y106.037 F6000.000
G1 X101.424 Y106.050 E0.06144 F1920.000
G1 X102.837 Y108.498 E0.06122
G1 X101.413 Y110.963 E0.06166
G1 X98.577 Y110.951 E0.06144
G1 X97.163 Y108.503 E0.06122
G1 X98.557 Y106.089 E0.06036
G1 X98.737 Y106.298 F6000.000
G1 X101.273 Y106.310 E0.05493 F1920.000
G1 X102.536 Y108.498 E0.05472
G1 X101.263 Y110.702 E0.05513
G1 X98.727 Y110.691 E0.05493
G1 X97.464 Y108.503 E0.05472
G1 X98.707 Y106.350 E0.05383
G1 X98.887 Y106.559 F6000.000
G1 X101.122 Y106.569 E0.04841 F1920.000
G1 X102.235 Y108.498 E0.04822
G1 X101.113 Y110.441 E0.04860
G1 X98.878 Y110.431 E0.04841
G1 X97.765 Y108.503 E0.04822
G1 X98.857 Y106.611 E0.04730
G1 X99.037 Y106.821 F6000.000
G1 X100.971 Y106.829 E0.04190 F1920.000
G1 X101.935 Y108.498 E0.04172
G1 X100.963 Y110.180 E0.04207
G1 X99.029 Y110.171 E0.04190
G1 X98.066 Y108.503 E0.04172
G1 X99.007 Y106.873 E0.04077
G1 X99.187 Y107.082 F6000.000
G1 X100.821 Y107.089 E0.03538 F1920.000
G1 X101.634 Y108.498 E0.03523
G1 X100.813 Y109.919 E0.03554
G1 X99.180 Y109.911 E0.03538
G1 X98.367 Y108.503 E0.03523
G1 X99.157 Y107.134 E0.03424
G1 E-1.50000 F1800.00000
G1 X95.372 Y109.046 F6000.000
G1 E1.50000 F1800.00000
G1 X97.521 Y112.769 E0.09310 F1920.000
G1 X102.463 Y112.791 E0.10704
G1 X104.628 Y109.041 E0.09378
G1 X104.819 Y109.092 E0.00427
G1 X104.819 Y115.719 E0.14352
G1 X95.181 Y115.719 E0.20873
G1 X95.181 Y109.097 E0.14341
G1 X95.314 Y109.062 E0.00297
G1 E-1.50000 F1800.00000
G1 X95.632 Y110.019 F6000.000
G1 E1.50000 F1800.00000
G1 X97.371 Y113.029 E0.07529 F1920.000
G1 X102.613 Y113.052 E0.11355
G1 X104.368 Y110.013 E0.07600
G1 X104.558 Y110.064 E0.00427
G1 X104.558 Y115.458 E0.11683
G1 X95.442 Y115.458 E0.19745
G1 X95.442 Y110.070 E0.11671
G1 X95.575 Y110.034 E0.00297
G1 E-1.50000 F1800.00000
G1 X95.893 Y110.991 F6000.000
G1 E1.50000 F1800.00000
G1 X97.220 Y113.289 E0.05747 F1920.000
G1 X102.763 Y113.313 E0.12007
G1 X104.107 Y110.986 E0.05822
G1 X104.298 Y111.037 E0.00427
G1 X104.298 Y115.198 E0.09013
G1 X95.702 Y115.198 E0.18617
G1 X95.702 Y111.042 E0.09002
G1 X95.835 Y111.006 E0.00297
G1 E-1.50000 F1800.00000
G1 X96.153 Y111.963 F6000.000
G1 E1.50000 F1800.00000
G1 X97.069 Y113.549 E0.03966 F1920.000
G1 X102.913 Y113.575 E0.12658
G1 X103.847 Y111.958 E0.04044
G1 X104.038 Y112.009 E0.00427
G1 X104.038 Y114.938 E0.06343
G1 X95.963 Y114.938 E0.17488
G1 X95.963 Y112.014 E0.06332
G1 X96.095 Y111.978 E0.00297
G1 E-1.50000 F1800.00000
G1 X96.414 Y112.935 F6000.000
G1 E1.50000 F1800.00000
G1 X96.918 Y113.808 E0.02185 F1920.000
G1 X103.063 Y113.836 E0.13310
G1 X103.587 Y112.930 E0.02266
G1 X103.777 Y112.981 E0.00427
G1 X103.777 Y114.677 E0.03674
G1 X96.223 Y114.677 E0.16360
G1 X96.223 Y112.986 E0.03663
G1 X96.356 Y112.950 E0.00297
G1 E-1.50000 F1800.00000
G1 X96.674 Y113.907 F6000.000
G1 E1.50000 F1800.00000
G1 X96.767 Y114.068 E0.00403 F1920.000
G1 X103.213 Y114.097 E0.13961
G1 X103.326 Y113.902 E0.00488
G1 X103.517 Y113.953 E0.00427
G1 X103.517 Y114.417 E0.01004
G1 X96.484 Y114.417 E0.15232
G1 X96.484 Y113.958 E0.00993
G1 X96.616 Y113.923 E0.00297
M106 S232.05
G1 E-1.50000 F1800.00000
G1 Z0.300 F6000.000
G1 X100.697 Y109.707 F6000.000
G1 E1.50000 F1800.00000
G1 E0.00293 F1800.000 ; pressure advance
G1 X99.303 Y109.707 E0.01614 F1500.000
G1 X98.606 Y108.500 E0.01614
G1 X99.303 Y107.293 E0.01614
G1 X100.697 Y107.293 E0.01614
G1 X101.394 Y108.500 E0.01614
G1 X100.727 Y109.655 E0.01545
G1 X100.536 Y109.429 F6000.000
G1 X99.464 Y109.429 E0.01242 F1500.000
G1 X98.928 Y108.500 E0.01242
G1 X99.464 Y107.572 E0.01242
G1 X100.536 Y107.572 E0.01242
G1 X101.072 Y108.500 E0.01242
G1 X100.566 Y109.377 E0.01172
G1 X100.375 Y109.150 F6000.000
G1 X99.625 Y109.150 E0.00869 F1500.000
G1 X99.250 Y108.500 E0.00869
G1 X99.625 Y107.850 E0.00869
G1 X100.375 Y107.850 E0.00869
G1 X100.751 Y108.500 E0.00869
G1 X100.405 Y109.098 E0.00800
G1 X100.306 Y109.544 F6000.000
G1 E-0.00293 F1800.000 ; pressure discharge
G1 E-1.50000 F1800.00000
G1 X107.893 Y118.793 F6000.000
G1 E1.50000 F1800.00000
G1 X92.107 Y118.793 E0.18281 F1500.000
G1 X92.107 Y81.207 E0.43526
G1 X107.893 Y81.207 E0.18281
G1 X107.893 Y118.733 E0.43456
G1 X108.172 Y119.072 F6000.000
G1 X91.829 Y119.072 E0.18926 F1500.000
G1 X91.829 Y80.929 E0.44171
G1 X108.172 Y80.929 E0.18926
G1 X108.172 Y119.012 E0.44101
G1 X108.450 Y119.350 F6000.000
G1 X91.550 Y119.350 E0.19571 F1500.000
G1 X91.550 Y80.650 E0.44816
G1 X108.450 Y80.650 E0.19571
G1 X108.450 Y119.290 E0.44746
G1 X108.104 Y119.150 F6000.000
G1 E-1.50000 F1800.00000
G1 X107.541 Y118.599 F6000.000
G1 E1.50000 F1800.00000
G1 E0.00758 F1800.000 ; pressure advance
G1 X107.699 Y118.441 E0.00260 F2400.000
G1 X107.699 Y118.045 E0.00461
G1 X107.145 Y118.599 E0.00913
G1 X106.749 Y118.599 E0.00461
G1 X107.699 Y117.649 E0.01565
G1 X107.699 Y117.253 E0.00461
G1 X106.353 Y118.599 E0.02217
G1 X105.957 Y118.599 E0.00461
G1 X107.699 Y116.857 E0.02869
G1 X107.699 Y116.461 E0.00461
G1 X105.561 Y118.599 E0.03521
G1 X105.165 Y118.599 E0.00461
G1 X107.699 Y116.065 E0.04173
G1 X107.699 Y115.669 E0.00461
G1 X104.769 Y118.599 E0.04826
G1 X104.373 Y118.599 E0.00461
G1 X107.699 Y115.273 E0.05478
G1 X107.699 Y114.877 E0.00461
G1 X103.977 Y118.599 E0.06130
G1 X103.580 Y118.599 E0.00461
G1 X107.699 Y114.480 E0.06782
G1 X107.699 Y114.084 E0.00461
G1 X103.184 Y118.599 E0.07434
G1 X102.788 Y118.599 E0.00461
G1 X107.699 Y113.688 E0.08086
G1 X107.699 Y113.292 E0.00461
G1 X102.392 Y118.599 E0.08739
G1 X101.996 Y118.599 E0.00461
G1 X107.699 Y112.896 E0.09391
G1 X107.699 Y112.500 E0.00461
G1 X101.600 Y118.599 E0.10043
G1 X101.204 Y118.599 E0.00461
G1 X107.699 Y112.104 E0.10695
G1 X107.699 Y111.708 E0.00461
G1 X100.808 Y118.599 E0.11347
G1 X100.412 Y118.599 E0.00461
G1 X107.699 Y111.312 E0.11999
G1 X107.699 Y110.916 E0.00461
G1 X100.016 Y118.599 E0.12652
G1 X99.620 Y118.599 E0.00461
G1 X107.699 Y110.520 E0.13304
G1 X107.699 Y110.124 E0.00461
G1 X99.224 Y118.599 E0.13956
G1 X98.828 Y118.599 E0.00461
G1 X107.699 Y109.728 E0.14608
G1 X107.699 Y109.332 E0.00461
G1 X98.432 Y118.599 E0.15260
G1 X98.036 Y118.599 E0.00461
G1 X107.699 Y108.936 E0.15912
G1 X107.699 Y108.540 E0.00461
G1 X97.640 Y118.599 E0.16565
G1 X97.244 Y118.599 E0.00461
G1 X107.699 Y108.143 E0.17217
G1 X107.699 Y107.747 E0.00461
G1 X96.847 Y118.599 E0.17869
G1 X96.451 Y118.599 E0.00461
G1 X107.699 Y107.351 E0.18521
G1 X107.699 Y106.955 E0.00461
G1 X96.055 Y118.599 E0.19173
G1 X95.659 Y118.599 E0.00461
G1 X107.699 Y106.559 E0.19825
G1 X107.699 Y106.163 E0.00461
G1 X95.263 Y118.599 E0.20478
G1 X94.867 Y118.599 E0.00461
G1 X107.699 Y105.767 E0.21130
G1 X107.699 Y105.371 E0.00461
G1 X94.471 Y118.599 E0.21782
G1 X94.075 Y118.599 E0.00461
