; generated by Slic3r 1.2.9 on 2016-02-11 at 22:40:48

; external perimeters extrusion width = 0.45mm
; perimeters extrusion width = 0.45mm
; infill extrusion width = 0.45mm
; solid infill extrusion width = 0.45mm
; top infill extrusion width = 0.45mm

M107
M190 S50 ; set bed temperature
M201 X1000 Y1000 E600
M109 S210
M92 E161.3
G28
G92 E0.0
G1 X8.0 F2000
G1 Y60.0 E4.0  F1000.0
G1 Y100.0 E8.5  F1000.0
G92 E0.0
G21 ; set units to millimeters
G90 ; use absolute coordinates
M83 ; use relative distances for extrusion
G1 E-1.50000 F1800.00000
G1 Z0.350 F6000.000
G1 X90.690 Y70.877 F6000.000
G1 E1.50000 F1800.00000
G1 E0.12762 F1800.000 ; pressure advance
G1 X91.559 Y70.008 E0.06705 F2100.000
G1 X91.670 Y69.943 E0.00701
G1 X92.857 Y69.625 E0.06706
G1 X107.143 Y69.625 E0.77930
G1 X108.330 Y69.943 E0.06705
G1 X108.442 Y70.008 E0.00701
G1 X109.311 Y70.877 E0.06706
G1 X116.454 Y83.249 E0.77930
G1 X116.772 Y84.436 E0.06706
G1 X116.772 Y115.564 E1.69808
G1 X116.454 Y116.752 E0.06706
G1 X109.311 Y129.124 E0.77931
G1 X108.442 Y129.993 E0.06706
G1 X108.330 Y130.057 E0.00700
G1 X107.143 Y130.375 E0.06706
G1 X92.857 Y130.375 E0.77930
G1 X91.670 Y130.057 E0.06706
G1 X91.559 Y129.993 E0.00699
G1 X90.690 Y129.124 E0.06706
G1 X83.547 Y116.752 E0.77931
G1 X83.229 Y115.564 E0.06706
G1 X83.229 Y84.436 E1.69808
G1 X83.547 Y83.249 E0.06706
G1 X90.660 Y70.929 E0.77603
G1 E-0.12762 F1800.000 ; pressure discharge
G1 E-1.50000 F1800.00000
G1 X102.105 Y117.029 F6000.000
G1 E1.50000 F1800.00000
G1 E0.08152 F1800.000 ; pressure advance
G1 X101.840 Y117.340 E0.02227 F1680.000
G1 X101.529 Y117.605 E0.02227
G1 X101.181 Y117.818 E0.02227
G1 X100.804 Y117.975 E0.02227
G1 X100.407 Y118.070 E0.02227
G1 X100.000 Y118.102 E0.02227
G1 X99.593 Y118.070 E0.02227
G1 X99.196 Y117.975 E0.02227
G1 X98.801 Y117.811 E0.02333
G1 X98.469 Y117.603 E0.02137
G1 X98.161 Y117.340 E0.02213
G1 X97.894 Y117.028 E0.02240
G1 X97.675 Y116.664 E0.02317
G1 X97.526 Y116.304 E0.02123
G1 X97.431 Y115.907 E0.02227
G1 X97.398 Y115.500 E0.02227
G1 X97.431 Y115.093 E0.02227
G1 X97.526 Y114.696 E0.02227
G1 X97.682 Y114.319 E0.02227
G1 X97.895 Y113.971 E0.02227
G1 X98.161 Y113.660 E0.02227
G1 X98.471 Y113.395 E0.02227
G1 X98.819 Y113.182 E0.02227
G1 X99.196 Y113.026 E0.02227
G1 X99.593 Y112.930 E0.02227
G1 X99.981 Y112.900 E0.02123
G1 X100.405 Y112.930 E0.02317
G1 X100.804 Y113.026 E0.02240
G1 X101.181 Y113.182 E0.02227
G1 X101.529 Y113.395 E0.02227
G1 X101.842 Y113.662 E0.02240
G1 X102.115 Y113.987 E0.02317
G1 X102.318 Y114.319 E0.02123
G1 X102.475 Y114.696 E0.02227
G1 X102.570 Y115.093 E0.02227
G1 X102.602 Y115.500 E0.02227
G1 X102.570 Y115.907 E0.02227
G1 X102.475 Y116.304 E0.02227
G1 X102.318 Y116.681 E0.02227
G1 X102.136 Y116.978 E0.01900
G1 X101.801 Y116.808 F6000.000
G1 X101.574 Y117.074 E0.01905 F1680.000
G1 X101.308 Y117.301 E0.01905
G1 X101.011 Y117.483 E0.01905
G1 X100.688 Y117.617 E0.01905
G1 X100.348 Y117.698 E0.01905
G1 X100.000 Y117.726 E0.01905
G1 X99.652 Y117.698 E0.01905
G1 X99.312 Y117.617 E0.01905
G1 X98.973 Y117.477 E0.02002
G1 X98.691 Y117.300 E0.01815
G1 X98.426 Y117.074 E0.01900
G1 X98.199 Y116.808 E0.01910
G1 X98.010 Y116.494 E0.01995
G1 X97.883 Y116.188 E0.01810
G1 X97.802 Y115.848 E0.01905
G1 X97.775 Y115.500 E0.01905
G1 X97.802 Y115.152 E0.01905
G1 X97.883 Y114.812 E0.01905
G1 X98.017 Y114.490 E0.01905
G1 X98.200 Y114.192 E0.01905
G1 X98.426 Y113.926 E0.01905
G1 X98.692 Y113.700 E0.01905
G1 X98.990 Y113.517 E0.01905
G1 X99.312 Y113.383 E0.01905
G1 X99.652 Y113.302 E0.01905
G1 X99.983 Y113.276 E0.01810
G1 X100.348 Y113.302 E0.01995
G1 X100.688 Y113.383 E0.01910
G1 X101.011 Y113.517 E0.01905
G1 X101.308 Y113.700 E0.01905
G1 X101.575 Y113.927 E0.01910
G1 X101.810 Y114.207 E0.01995
G1 X101.983 Y114.490 E0.01810
G1 X102.117 Y114.812 E0.01905
G1 X102.199 Y115.152 E0.01905
G1 X102.226 Y115.500 E0.01905
G1 X102.199 Y115.848 E0.01905
G1 X102.117 Y116.188 E0.01905
G1 X101.983 Y116.511 E0.01905
G1 X101.832 Y116.757 E0.01578
G1 X101.934 Y117.131 F6000.000
G1 E-0.08152 F1800.000 ; pressure discharge
G1 E-1.50000 F1800.00000
G1 X106.871 Y127.400 F6000.000
G1 E1.50000 F1800.00000
G1 X93.130 Y127.400 E0.74959 F1680.000
G1 X92.788 Y126.809 E0.03726
G1 X86.259 Y115.500 E0.71233
G1 X93.130 Y103.600 E0.74959
G1 X106.873 Y103.603 E0.74970
G1 X113.741 Y115.500 E0.74938
G1 X106.901 Y127.348 E0.74632
G1 X107.089 Y127.771 F6000.000
G1 X92.911 Y127.771 E0.77345 F1680.000
G1 X85.829 Y115.496 E0.77309
G1 X92.911 Y103.229 E0.77273
G1 X107.089 Y103.229 E0.77345
G1 X114.172 Y115.496 E0.77273
G1 X107.119 Y127.719 E0.76981
G1 X106.783 Y127.514 F6000.000
G1 X106.748 Y126.863 F6000.000
G1 X106.748 Y122.248 E0.25173 F1680.000
G1 X109.412 Y122.248 E0.14534
G1 X109.629 Y121.873 F6000.000
G1 X106.373 Y121.873 E0.17759 F1680.000
G1 X106.373 Y127.025 E0.28106
G1 X105.998 Y127.025 F6000.000
G1 X105.998 Y121.498 E0.30151 F1680.000
G1 X109.845 Y121.498 E0.20985
G1 X110.062 Y121.124 F6000.000
G1 X105.624 Y121.124 E0.24211 F1680.000
G1 X105.624 Y127.025 E0.32196
G1 X105.249 Y127.025 F6000.000
G1 X105.249 Y120.749 E0.34241 F1680.000
G1 X110.278 Y120.749 E0.27437
G1 X110.495 Y120.374 F6000.000
G1 X104.874 Y120.374 E0.30663 F1680.000
G1 X104.874 Y127.025 E0.36286
G1 X104.499 Y127.025 F6000.000
G1 X104.499 Y119.999 E0.38331 F1680.000
G1 X110.711 Y119.999 E0.33888
G1 X110.928 Y119.624 F6000.000
G1 X104.124 Y119.624 E0.37114 F1680.000
G1 X104.124 Y127.025 E0.40376
G1 X103.278 Y127.025 F6000.000
G1 X100.000 Y123.748 E0.25286 F1680.000
G1 X96.723 Y127.025 E0.25286
G1 X97.472 Y127.025 F6000.000
G1 X100.000 Y124.498 E0.19502 F1680.000
G1 X102.528 Y127.025 E0.19502
G1 X101.778 Y127.025 F6000.000
G1 X100.000 Y125.247 E0.13718 F1680.000
G1 X98.222 Y127.025 E0.13718
G1 X98.972 Y127.025 F6000.000
G1 X100.000 Y125.997 E0.07933 F1680.000
G1 X101.029 Y127.025 E0.07933
G1 X100.279 Y127.025 F6000.000
G1 X100.000 Y126.747 E0.02149 F1680.000
G1 X99.722 Y127.025 E0.02149
G1 E-1.50000 F1800.00000
G1 X95.973 Y127.025 F6000.000
G1 E1.50000 F1800.00000
G1 X100.000 Y122.998 E0.31071 F1680.000
G1 X103.749 Y126.747 E0.28922
G1 X103.749 Y119.249 E0.40901
G1 X111.144 Y119.249 E0.40340
G1 X111.182 Y119.184 F6000.000
G1 X107.498 Y115.500 E0.28418 F1680.000
G1 X111.182 Y111.817 E0.28418
G1 X111.144 Y111.751 F6000.000
G1 X103.749 Y111.751 E0.40340 F1680.000
G1 X103.749 Y104.254 E0.40901
G1 X100.000 Y108.002 E0.28922
G1 X96.251 Y104.254 E0.28922
G1 X96.251 Y111.751 E0.40901
G1 X88.856 Y111.751 E0.40340
G1 X88.819 Y111.817 F6000.000
G1 X92.502 Y115.500 E0.28418 F1680.000
G1 X88.819 Y119.184 E0.28418
G1 X88.856 Y119.249 F6000.000
G1 X96.251 Y119.249 E0.40340 F1680.000
G1 X96.251 Y125.997 E0.36811
G1 X100.000 Y122.248 E0.28922
G1 X103.374 Y125.622 E0.26030
G1 X103.374 Y118.874 E0.36811
G1 X110.122 Y118.874 E0.36811
G1 X106.748 Y115.500 E0.26030
G1 X110.122 Y112.126 E0.26030
G1 X103.374 Y112.126 E0.36811
G1 X103.374 Y105.378 E0.36811
G1 X100.000 Y108.752 E0.26030
G1 X96.626 Y105.378 E0.26029
G1 X96.626 Y112.126 E0.36811
G1 X89.878 Y112.126 E0.36811
G1 X93.252 Y115.500 E0.26030
G1 X89.878 Y118.874 E0.26030
G1 X96.626 Y118.874 E0.36811
G1 X96.626 Y124.872 E0.32721
G1 X100.000 Y121.498 E0.26029
G1 X102.999 Y124.498 E0.23137
G1 X102.999 Y118.499 E0.32721
G1 X108.998 Y118.499 E0.32721
G1 X105.998 Y115.500 E0.23137
G1 X108.998 Y112.501 E0.23137
G1 X102.999 Y112.501 E0.32721
G1 X102.999 Y106.503 E0.32721
G1 X100.000 Y109.502 E0.23137
G1 X97.001 Y106.503 E0.23137
G1 X97.001 Y112.501 E0.32721
G1 X91.003 Y112.501 E0.32721
G1 X94.002 Y115.500 E0.23137
G1 X91.003 Y118.499 E0.23137
G1 X97.001 Y118.499 E0.32721
G1 X97.001 Y123.748 E0.28631
G1 X100.000 Y120.749 E0.23137
G1 X102.624 Y123.373 E0.20245
G1 X102.624 Y118.124 E0.28631
G1 X107.873 Y118.124 E0.28631
G1 X105.249 Y115.500 E0.20245
G1 X107.873 Y112.876 E0.20245
G1 X102.624 Y112.876 E0.28631
G1 X102.624 Y107.628 E0.28631
G1 X100.000 Y110.252 E0.20245
G1 X97.376 Y107.628 E0.20245
G1 X97.376 Y112.876 E0.28631
G1 X92.128 Y112.876 E0.28631
G1 X94.752 Y115.500 E0.20245
G1 X92.128 Y118.124 E0.20245
G1 X97.376 Y118.124 E0.28631
G1 X97.376 Y122.623 E0.24541
G1 X100.000 Y119.999 E0.20245
G1 X102.250 Y122.248 E0.17353
G1 X102.250 Y117.750 E0.24541
G1 X106.748 Y117.750 E0.24541
G1 X104.499 Y115.500 E0.17353
G1 X106.748 Y113.251 E0.17353
G1 X102.250 Y113.251 E0.24541
G1 X102.250 Y108.752 E0.24541
G1 X100.000 Y111.002 E0.17353
G1 X97.751 Y108.752 E0.17353
G1 X97.751 Y113.251 E0.24541
G1 X93.252 Y113.251 E0.24541
G1 X95.502 Y115.500 E0.17353
G1 X93.252 Y117.750 E0.17353
G1 X97.751 Y117.750 E0.24541
G1 X97.751 Y121.498 E0.20451
G1 X100.000 Y119.249 E0.17353
G1 X101.875 Y121.124 E0.14461
G1 X101.875 Y117.803 E0.18113
G1 X101.500 Y118.063 F6000.000
G1 X101.500 Y119.999 E0.10561 F1680.000
G1 X100.000 Y118.499 E0.11569
G1 X98.126 Y120.374 E0.14461
G1 X98.126 Y117.803 E0.14023
G1 X98.501 Y118.065 F6000.000
G1 X98.501 Y119.249 E0.06458 F1680.000
G1 X99.352 Y118.398 E0.06569
G1 E-1.50000 F1800.00000
G1 X100.648 Y118.398 F6000.000
G1 E1.50000 F1800.00000
G1 X101.125 Y118.874 E0.03677 F1680.000
G1 X101.125 Y118.247 E0.03419
G1 E-1.50000 F1800.00000
G1 X102.303 Y117.375 F6000.000
G1 E1.50000 F1800.00000
G1 X105.624 Y117.375 E0.18113 F1680.000
G1 X103.749 Y115.500 E0.14461
G1 X105.624 Y113.626 E0.14461
G1 X102.301 Y113.626 E0.18125
G1 X102.563 Y114.001 F6000.000
G1 X104.499 Y114.001 E0.10561 F1680.000
G1 X102.999 Y115.500 E0.11569
G1 X104.499 Y117.000 E0.11569
G1 X102.563 Y117.000 E0.10561
G1 X102.748 Y116.625 F6000.000
G1 X103.374 Y116.625 E0.03419 F1680.000
G1 X102.898 Y116.148 E0.03677
G1 E-1.50000 F1800.00000
G1 X102.898 Y114.852 F6000.000
G1 E1.50000 F1800.00000
G1 X103.374 Y114.376 E0.03677 F1680.000
G1 X102.748 Y114.376 E0.03419
G1 E-1.50000 F1800.00000
G1 X101.875 Y113.197 F6000.000
G1 E1.50000 F1800.00000
G1 X101.875 Y109.877 E0.18113 F1680.000
G1 X100.000 Y111.751 E0.14461
G1 X98.126 Y109.877 E0.14461
G1 X98.126 Y113.197 E0.18113
G1 X98.501 Y112.937 F6000.000
G1 X98.501 Y111.002 E0.10561 F1680.000
G1 X100.000 Y112.501 E0.11569
G1 X101.500 Y111.002 E0.11569
G1 X101.500 Y112.937 E0.10561
G1 X101.125 Y112.753 F6000.000
G1 X101.125 Y112.126 E0.03419 F1680.000
G1 X100.648 Y112.603 E0.03677
G1 E-1.50000 F1800.00000
G1 X99.352 Y112.603 F6000.000
G1 E1.50000 F1800.00000
G1 X98.876 Y112.126 E0.03677 F1680.000
G1 X98.876 Y112.753 E0.03419
G1 E-1.50000 F1800.00000
G1 X97.697 Y113.626 F6000.000
G1 E1.50000 F1800.00000
G1 X94.377 Y113.626 E0.18113 F1680.000
G1 X96.251 Y115.500 E0.14461
G1 X94.377 Y117.375 E0.14461
G1 X97.697 Y117.375 E0.18113
G1 X97.439 Y117.000 F6000.000
G1 X95.502 Y117.000 E0.10572 F1680.000
G1 X97.001 Y115.500 E0.11569
G1 X95.502 Y114.001 E0.11569
G1 X97.438 Y114.001 E0.10561
G1 X97.253 Y114.376 F6000.000
G1 X96.626 Y114.376 E0.03419 F1680.000
G1 X97.103 Y114.852 E0.03677
G1 E-1.50000 F1800.00000
G1 X97.103 Y116.148 F6000.000
G1 E1.50000 F1800.00000
G1 X96.626 Y116.625 E0.03677 F1680.000
G1 X97.253 Y116.625 E0.03419
G1 E-1.50000 F1800.00000
G1 X89.722 Y120.749 F6000.000
G1 E1.50000 F1800.00000
G1 X94.752 Y120.749 E0.27437 F1680.000
G1 X94.752 Y127.025 E0.34241
G1 X94.377 Y127.025 F6000.000
G1 X94.377 Y121.124 E0.32196 F1680.000
G1 X89.939 Y121.124 E0.24211
G1 X90.155 Y121.498 F6000.000
G1 X94.002 Y121.498 E0.20985 F1680.000
G1 X94.002 Y127.025 E0.30151
G1 X93.627 Y127.025 F6000.000
G1 X93.627 Y121.873 E0.28106 F1680.000
G1 X90.372 Y121.873 E0.17760
G1 X90.588 Y122.248 F6000.000
G1 X93.252 Y122.248 E0.14534 F1680.000
G1 X93.252 Y126.863 E0.25173
G1 X92.877 Y126.213 F6000.000
G1 X92.877 Y122.623 E0.19586 F1680.000
G1 X90.804 Y122.623 E0.11308
G1 X91.021 Y122.998 F6000.000
G1 X92.502 Y122.998 E0.08082 F1680.000
G1 X92.502 Y125.564 E0.13999
G1 X92.128 Y124.915 F6000.000
G1 X92.128 Y123.373 E0.08412 F1680.000
G1 X91.237 Y123.373 E0.04856
G1 X91.454 Y123.748 F6000.000
G1 X91.753 Y123.748 E0.01631 F1680.000
G1 X91.753 Y124.265 E0.02824
G1 E-1.50000 F1800.00000
G1 X95.127 Y127.025 F6000.000
G1 E1.50000 F1800.00000
G1 X95.127 Y120.374 E0.36286 F1680.000
G1 X89.506 Y120.374 E0.30663
G1 X89.289 Y119.999 F6000.000
G1 X95.502 Y119.999 E0.33888 F1680.000
G1 X95.502 Y127.025 E0.38331
G1 X95.876 Y127.025 F6000.000
G1 X95.876 Y119.624 E0.40376 F1680.000
G1 X89.073 Y119.624 E0.37114
G1 E-1.50000 F1800.00000
G1 X88.544 Y118.708 F6000.000
G1 E1.50000 F1800.00000
G1 X91.753 Y115.500 E0.24751 F1680.000
G1 X88.544 Y112.292 E0.24751
G1 X88.270 Y112.767 F6000.000
G1 X91.003 Y115.500 E0.21084 F1680.000
G1 X88.270 Y118.233 E0.21084
G1 X87.995 Y117.758 F6000.000
G1 X90.253 Y115.500 E0.17417 F1680.000
G1 X87.995 Y113.243 E0.17417
G1 X87.721 Y113.718 F6000.000
G1 X89.503 Y115.500 E0.13750 F1680.000
G1 X87.721 Y117.282 E0.13750
G1 X87.447 Y116.807 F6000.000
G1 X88.754 Y115.500 E0.10083 F1680.000
G1 X87.447 Y114.193 E0.10083
G1 X87.172 Y114.669 F6000.000
G1 X88.004 Y115.500 E0.06416 F1680.000
G1 X87.172 Y116.332 E0.06416
G1 X86.898 Y115.856 F6000.000
G1 X87.254 Y115.500 E0.02748 F1680.000
G1 X86.898 Y115.144 E0.02748
G1 E-1.50000 F1800.00000
G1 X89.073 Y111.376 F6000.000
G1 E1.50000 F1800.00000
G1 X95.876 Y111.376 E0.37114 F1680.000
G1 X95.876 Y103.976 E0.40372
G1 X95.502 Y103.976 F6000.000
G1 X95.502 Y111.002 E0.38328 F1680.000
G1 X89.289 Y111.002 E0.33888
G1 X89.506 Y110.627 F6000.000
G1 X95.127 Y110.627 E0.30663 F1680.000
G1 X95.127 Y103.975 E0.36283
G1 X94.752 Y103.975 F6000.000
G1 X94.752 Y110.252 E0.34238 F1680.000
G1 X89.722 Y110.252 E0.27437
G1 X89.939 Y109.877 F6000.000
G1 X94.377 Y109.877 E0.24211 F1680.000
G1 X94.377 Y103.975 E0.32194
G1 X94.002 Y103.975 F6000.000
G1 X94.002 Y109.502 E0.30149 F1680.000
G1 X90.155 Y109.502 E0.20985
G1 X90.372 Y109.127 F6000.000
G1 X93.627 Y109.127 E0.17760 F1680.000
G1 X93.627 Y103.975 E0.28105
G1 X93.252 Y104.138 F6000.000
G1 X93.252 Y108.752 E0.25173 F1680.000
G1 X90.588 Y108.752 E0.14534
G1 X90.804 Y108.377 F6000.000
G1 X92.877 Y108.377 E0.11308 F1680.000
G1 X92.877 Y104.787 E0.19586
G1 X92.502 Y105.436 F6000.000
G1 X92.502 Y108.002 E0.13999 F1680.000
G1 X91.021 Y108.002 E0.08082
G1 X91.237 Y107.628 F6000.000
G1 X92.128 Y107.628 E0.04856 F1680.000
G1 X92.128 Y106.086 E0.08412
G1 X91.753 Y106.735 F6000.000
G1 X91.753 Y107.253 E0.02824 F1680.000
G1 X91.454 Y107.253 E0.01631
G1 E-1.50000 F1800.00000
G1 X96.723 Y103.976 F6000.000
G1 E1.50000 F1800.00000
G1 X100.000 Y107.253 E0.25279 F1680.000
G1 X103.275 Y103.977 E0.25267
G1 X102.526 Y103.977 F6000.000
G1 X100.000 Y106.503 E0.19484 F1680.000
G1 X97.473 Y103.976 E0.19494
G1 X98.223 Y103.976 F6000.000
G1 X100.000 Y105.753 E0.13708 F1680.000
G1 X101.776 Y103.977 E0.13701
G1 X101.027 Y103.977 F6000.000
G1 X100.000 Y105.003 E0.07918 F1680.000
G1 X98.973 Y103.976 E0.07922
G1 X99.723 Y103.977 F6000.000
G1 X100.000 Y104.254 E0.02137 F1680.000
G1 X100.277 Y103.977 E0.02136
G1 E-1.50000 F1800.00000
G1 X104.124 Y103.978 F6000.000
G1 E1.50000 F1800.00000
G1 X104.124 Y111.376 E0.40361 F1680.000
G1 X110.928 Y111.376 E0.37114
G1 X110.711 Y111.002 F6000.000
G1 X104.499 Y111.002 E0.33888 F1680.000
G1 X104.499 Y103.978 E0.38316
G1 X104.874 Y103.978 F6000.000
G1 X104.874 Y110.627 E0.36270 F1680.000
G1 X110.495 Y110.627 E0.30663
G1 X110.278 Y110.252 F6000.000
G1 X105.249 Y110.252 E0.27437 F1680.000
G1 X105.249 Y103.978 E0.34225
G1 X105.624 Y103.978 F6000.000
G1 X105.624 Y109.877 E0.32179 F1680.000
G1 X110.062 Y109.877 E0.24211
G1 X109.845 Y109.502 F6000.000
G1 X105.998 Y109.502 E0.20985 F1680.000
G1 X105.998 Y103.978 E0.30134
G1 X106.373 Y103.978 F6000.000
G1 X106.373 Y109.127 E0.28088 F1680.000
G1 X109.629 Y109.127 E0.17759
G1 X109.412 Y108.752 F6000.000
G1 X106.748 Y108.752 E0.14534 F1680.000
G1 X106.748 Y104.138 E0.25173
G1 X107.123 Y104.787 F6000.000
G1 X107.123 Y108.377 E0.19586 F1680.000
G1 X109.196 Y108.377 E0.11308
G1 X108.980 Y108.002 F6000.000
G1 X107.498 Y108.002 E0.08082 F1680.000
G1 X107.498 Y105.436 E0.13999
G1 X107.873 Y106.086 F6000.000
G1 X107.873 Y107.628 E0.08411 F1680.000
G1 X108.763 Y107.628 E0.04856
G1 X108.547 Y107.253 F6000.000
G1 X108.248 Y107.253 E0.01631 F1680.000
G1 X108.248 Y106.735 E0.02824
G1 E-1.50000 F1800.00000
G1 X111.456 Y112.292 F6000.000
G1 E1.50000 F1800.00000
G1 X108.248 Y115.500 E0.24751 F1680.000
