; generated by Slic3r 1.2.9 on 2016-02-11 at 03:06:42

; external perimeters extrusion width = 0.30mm
; perimeters extrusion width = 0.30mm
; infill extrusion width = 0.50mm
; solid infill extrusion width = 0.30mm
; top infill extrusion width = 0.30mm

M107
M190 S50 ; set bed temperature
M201 X1000 Y1000 E600
M109 S210
M92 E161.3
G28
G92 E0.0
G1 X8.0 F2000
G1 Y60.0 E4.0  F1000.0
G1 Y100.0 E8.5  F1000.0
G92 E0.0
G21 ; set units to millimeters
G90 ; use absolute coordinates
M83 ; use relative distances for extrusion
G1 E-1.50000 F1800.00000
G1 Z0.200 F6000.000
G1 X89.264 Y79.319 F6000.000
G1 E1.50000 F1800.00000
G1 E0.15284 F1800.000 ; pressure advance
G1 X90.324 Y78.350 E0.07503 F2400.000
G1 X91.500 Y78.072 E0.06313
G1 X108.500 Y78.072 E0.88816
G1 X109.882 Y78.464 E0.07503
G1 X110.851 Y79.524 E0.07503
G1 X111.129 Y80.700 E0.06313
G1 X111.129 Y119.300 E2.01665
G1 X110.736 Y120.682 E0.07503
G1 X109.676 Y121.651 E0.07503
G1 X108.500 Y121.929 E0.06313
G1 X91.500 Y121.929 E0.88816
G1 X90.119 Y121.536 E0.07503
G1 X89.150 Y120.476 E0.07503
G1 X88.872 Y119.300 E0.06313
G1 X88.872 Y80.700 E2.01665
G1 X89.248 Y79.376 E0.07190
G1 E-0.15284 F1800.000 ; pressure discharge
G1 E-1.50000 F1800.00000
G1 X107.836 Y118.636 F6000.000
G1 E1.50000 F1800.00000
G1 E0.00640 F1800.000 ; pressure advance
G1 X92.164 Y118.636 E0.33500 F1200.000
G1 X92.164 Y81.364 E0.79673
G1 X107.836 Y81.364 E0.33500
G1 X107.836 Y118.576 E0.79545
G1 X108.093 Y118.893 F6000.000
G1 X91.907 Y118.893 E0.34599 F1200.000
G1 X91.907 Y81.107 E0.80772
G1 X108.093 Y81.107 E0.34599
G1 X108.093 Y118.833 E0.80644
G1 X108.350 Y119.150 F6000.000
G1 X91.650 Y119.150 E0.35698 F1200.000
G1 X91.650 Y80.850 E0.81871
G1 X108.350 Y80.850 E0.35698
G1 X108.350 Y119.090 E0.81743
G1 X108.004 Y118.950 F6000.000
G1 E-0.00640 F1800.000 ; pressure discharge
G1 E-1.50000 F1800.00000
G1 X107.584 Y117.671 F6000.000
G1 E1.50000 F1800.00000
G1 E0.01638 F1800.000 ; pressure advance
G1 X107.259 Y117.997 E0.00984 F1920.000
G1 X107.441 Y118.178 E0.00550
G1 X107.259 Y118.360 E0.00550
G1 X107.077 Y118.178 E0.00550
G1 X106.871 Y118.384 E0.00622
G1 X106.508 Y118.384 F6000.000
G1 X106.713 Y118.178 E0.00622 F1920.000
G1 X106.532 Y117.997 E0.00550
G1 X106.350 Y118.178 E0.00550
G1 X106.168 Y117.997 E0.00550
G1 X106.350 Y117.815 E0.00550
G1 X106.168 Y117.633 E0.00550
G1 X105.805 Y117.997 E0.01099
G1 X105.986 Y118.178 E0.00550
G1 X105.805 Y118.360 E0.00550
G1 X105.441 Y117.997 E0.01099
G1 X105.623 Y117.815 E0.00550
G1 X105.441 Y117.633 E0.00550
G1 X105.259 Y117.815 E0.00550
G1 X104.896 Y117.451 E0.01099
G1 X105.077 Y117.270 E0.00550
G1 X105.259 Y117.451 E0.00550
G1 X105.441 Y117.270 E0.00550
G1 X105.259 Y117.088 E0.00550
G1 X105.441 Y116.906 E0.00550
G1 X105.805 Y117.270 E0.01099
G1 X105.623 Y117.451 E0.00550
G1 X105.805 Y117.633 E0.00550
G1 X106.350 Y117.088 E0.01649
G1 X106.168 Y116.906 E0.00550
G1 X105.986 Y117.088 E0.00550
G1 X105.623 Y116.724 E0.01099
G1 X105.805 Y116.542 E0.00550
G1 X105.986 Y116.724 E0.00550
G1 X106.168 Y116.542 E0.00550
G1 X105.986 Y116.361 E0.00550
G1 X106.168 Y116.179 E0.00550
G1 X106.532 Y116.542 E0.01099
G1 X106.350 Y116.724 E0.00550
G1 X106.532 Y116.906 E0.00550
G1 X106.713 Y116.724 E0.00550
G1 X107.077 Y117.088 E0.01099
G1 X106.895 Y117.270 E0.00550
G1 X106.713 Y117.088 E0.00550
G1 X106.350 Y117.451 E0.01099
G1 X106.532 Y117.633 E0.00550
G1 X106.713 Y117.451 E0.00550
G1 X106.895 Y117.633 E0.00550
G1 X106.713 Y117.815 E0.00550
G1 X106.895 Y117.997 E0.00550
G1 X107.259 Y117.633 E0.01099
G1 X107.077 Y117.451 E0.00550
G1 X107.259 Y117.270 E0.00550
G1 X107.441 Y117.451 E0.00550
G1 X107.584 Y117.308 E0.00434
G1 X107.584 Y117.231 F6000.000
G1 X107.441 Y117.088 E0.00434 F1920.000
G1 X107.584 Y116.944 E0.00434
G1 X107.584 Y116.217 F6000.000
G1 X107.259 Y116.542 E0.00984 F1920.000
G1 X107.441 Y116.724 E0.00550
G1 X107.259 Y116.906 E0.00550
G1 X106.895 Y116.542 E0.01099
G1 X107.077 Y116.361 E0.00550
G1 X106.895 Y116.179 E0.00550
G1 X106.713 Y116.361 E0.00550
G1 X106.350 Y115.997 E0.01099
G1 X106.532 Y115.815 E0.00550
G1 X106.713 Y115.997 E0.00550
G1 X106.895 Y115.815 E0.00550
G1 X106.713 Y115.634 E0.00550
G1 X106.895 Y115.452 E0.00550
G1 X107.259 Y115.815 E0.01099
G1 X107.077 Y115.997 E0.00550
G1 X107.259 Y116.179 E0.00550
G1 X107.584 Y115.853 E0.00984
G1 X107.584 Y115.490 F6000.000
G1 X107.441 Y115.634 E0.00434 F1920.000
G1 X107.077 Y115.270 E0.01099
G1 X107.259 Y115.088 E0.00550
G1 X107.441 Y115.270 E0.00550
G1 X107.584 Y115.126 E0.00434
G1 X107.584 Y115.050 F6000.000
G1 X107.441 Y114.906 E0.00434 F1920.000
G1 X107.584 Y114.763 E0.00434
G1 X107.584 Y114.036 F6000.000
G1 X107.441 Y114.179 E0.00434 F1920.000
G1 X107.077 Y113.816 E0.01099
G1 X107.259 Y113.634 E0.00550
G1 X107.441 Y113.816 E0.00550
G1 X107.584 Y113.672 E0.00434
G1 X107.584 Y113.596 F6000.000
G1 X107.441 Y113.452 E0.00434 F1920.000
G1 X107.584 Y113.309 E0.00434
G1 X107.584 Y112.869 F6000.000
G1 X107.441 Y112.725 E0.00434 F1920.000
G1 X107.584 Y112.581 E0.00434
G1 X107.584 Y111.854 F6000.000
G1 X107.259 Y112.180 E0.00984 F1920.000
G1 X107.441 Y112.361 E0.00550
G1 X107.259 Y112.543 E0.00550
G1 X107.077 Y112.361 E0.00550
G1 X106.713 Y112.725 E0.01099
G1 X106.895 Y112.907 E0.00550
G1 X107.077 Y112.725 E0.00550
G1 X107.441 Y113.089 E0.01099
G1 X107.259 Y113.270 E0.00550
G1 X107.077 Y113.089 E0.00550
G1 X106.895 Y113.270 E0.00550
G1 X107.077 Y113.452 E0.00550
G1 X106.895 Y113.634 E0.00550
G1 X106.532 Y113.270 E0.01099
G1 X106.713 Y113.089 E0.00550
G1 X106.532 Y112.907 E0.00550
G1 X106.350 Y113.089 E0.00550
G1 X105.986 Y112.725 E0.01099
G1 X106.168 Y112.543 E0.00550
G1 X106.350 Y112.725 E0.00550
G1 X106.713 Y112.361 E0.01099
G1 X106.532 Y112.180 E0.00550
G1 X106.350 Y112.361 E0.00550
G1 X106.168 Y112.180 E0.00550
G1 X106.350 Y111.998 E0.00550
G1 X106.168 Y111.816 E0.00550
G1 X105.805 Y112.180 E0.01099
G1 X105.986 Y112.361 E0.00550
G1 X105.805 Y112.543 E0.00550
G1 X105.441 Y112.180 E0.01099
G1 X105.623 Y111.998 E0.00550
G1 X105.441 Y111.816 E0.00550
G1 X105.259 Y111.998 E0.00550
G1 X104.896 Y111.634 E0.01099
G1 X105.077 Y111.453 E0.00550
G1 X105.259 Y111.634 E0.00550
G1 X105.441 Y111.453 E0.00550
G1 X105.259 Y111.271 E0.00550
G1 X105.441 Y111.089 E0.00550
G1 X105.805 Y111.453 E0.01099
G1 X105.623 Y111.634 E0.00550
G1 X105.805 Y111.816 E0.00550
G1 X106.350 Y111.271 E0.01649
G1 X106.168 Y111.089 E0.00550
G1 X105.986 Y111.271 E0.00550
G1 X105.623 Y110.907 E0.01099
G1 X105.805 Y110.725 E0.00550
G1 X105.986 Y110.907 E0.00550
G1 X106.168 Y110.725 E0.00550
G1 X105.986 Y110.544 E0.00550
G1 X106.168 Y110.362 E0.00550
G1 X106.532 Y110.725 E0.01099
G1 X106.350 Y110.907 E0.00550
G1 X106.532 Y111.089 E0.00550
G1 X106.713 Y110.907 E0.00550
G1 X107.077 Y111.271 E0.01099
G1 X106.895 Y111.453 E0.00550
G1 X106.713 Y111.271 E0.00550
G1 X106.350 Y111.634 E0.01099
G1 X106.532 Y111.816 E0.00550
G1 X106.713 Y111.634 E0.00550
G1 X106.895 Y111.816 E0.00550
G1 X106.713 Y111.998 E0.00550
G1 X106.895 Y112.180 E0.00550
G1 X107.259 Y111.816 E0.01099
G1 X107.077 Y111.634 E0.00550
G1 X107.259 Y111.453 E0.00550
G1 X107.441 Y111.634 E0.00550
G1 X107.584 Y111.491 E0.00434
G1 X107.584 Y111.414 F6000.000
G1 X107.441 Y111.271 E0.00434 F1920.000
G1 X107.584 Y111.127 E0.00434
G1 X107.584 Y110.400 F6000.000
G1 X107.259 Y110.725 E0.00984 F1920.000
G1 X107.441 Y110.907 E0.00550
G1 X107.259 Y111.089 E0.00550
G1 X106.895 Y110.725 E0.01099
G1 X107.077 Y110.544 E0.00550
G1 X106.895 Y110.362 E0.00550
G1 X106.713 Y110.544 E0.00550
G1 X106.350 Y110.180 E0.01099
G1 X106.532 Y109.998 E0.00550
G1 X106.713 Y110.180 E0.00550
G1 X106.895 Y109.998 E0.00550
G1 X106.713 Y109.816 E0.00550
G1 X106.895 Y109.635 E0.00550
G1 X107.259 Y109.998 E0.01099
G1 X107.077 Y110.180 E0.00550
G1 X107.259 Y110.362 E0.00550
G1 X107.584 Y110.036 E0.00984
G1 X107.584 Y109.673 F6000.000
G1 X107.441 Y109.816 E0.00434 F1920.000
G1 X107.077 Y109.453 E0.01099
G1 X107.259 Y109.271 E0.00550
G1 X107.441 Y109.453 E0.00550
G1 X107.584 Y109.309 E0.00434
G1 X107.584 Y109.233 F6000.000
G1 X107.441 Y109.089 E0.00434 F1920.000
G1 X107.584 Y108.946 E0.00434
G1 X107.584 Y108.506 F6000.000
G1 X107.259 Y108.180 E0.00984 F1920.000
G1 X107.441 Y107.999 E0.00550
G1 X107.259 Y107.817 E0.00550
G1 X107.077 Y107.999 E0.00550
G1 X106.713 Y107.635 E0.01099
G1 X106.895 Y107.453 E0.00550
G1 X107.077 Y107.635 E0.00550
G1 X107.441 Y107.271 E0.01099
G1 X107.259 Y107.090 E0.00550
G1 X107.077 Y107.272 E0.00550
G1 X106.895 Y107.090 E0.00550
G1 X107.077 Y106.908 E0.00550
G1 X106.895 Y106.726 E0.00550
G1 X106.532 Y107.090 E0.01099
G1 X106.713 Y107.271 E0.00550
G1 X106.532 Y107.453 E0.00550
G1 X106.168 Y107.090 E0.01099
G1 X106.350 Y106.908 E0.00550
G1 X106.168 Y106.726 E0.00550
G1 X105.986 Y106.908 E0.00550
G1 X105.623 Y106.544 E0.01099
G1 X105.805 Y106.363 E0.00550
G1 X105.986 Y106.544 E0.00550
G1 X106.168 Y106.363 E0.00550
G1 X105.986 Y106.181 E0.00550
G1 X106.168 Y105.999 E0.00550
G1 X106.532 Y106.363 E0.01099
G1 X106.350 Y106.544 E0.00550
G1 X106.532 Y106.726 E0.00550
G1 X106.895 Y106.363 E0.01099
G1 X106.713 Y106.181 E0.00550
G1 X106.895 Y105.999 E0.00550
G1 X107.077 Y106.181 E0.00550
G1 X107.441 Y105.817 E0.01099
G1 X107.259 Y105.635 E0.00550
G1 X107.077 Y105.817 E0.00550
G1 X106.895 Y105.635 E0.00550
G1 X107.077 Y105.454 E0.00550
G1 X106.895 Y105.272 E0.00550
G1 X106.532 Y105.635 E0.01099
G1 X106.713 Y105.817 E0.00550
G1 X106.532 Y105.999 E0.00550
G1 X106.350 Y105.817 E0.00550
G1 X105.986 Y105.454 E0.01099
G1 X106.168 Y105.272 E0.00550
G1 X106.350 Y105.454 E0.00550
G1 X106.713 Y105.090 E0.01099
G1 X106.532 Y104.908 E0.00550
G1 X106.350 Y105.090 E0.00550
G1 X106.168 Y104.908 E0.00550
G1 X106.350 Y104.727 E0.00550
G1 X106.168 Y104.545 E0.00550
G1 X105.805 Y104.908 E0.01099
G1 X105.986 Y105.090 E0.00550
G1 X105.805 Y105.272 E0.00550
G1 X105.623 Y105.090 E0.00550
G1 X105.259 Y105.454 E0.01099
G1 X105.441 Y105.635 E0.00550
G1 X105.623 Y105.454 E0.00550
G1 X105.986 Y105.817 E0.01099
G1 X105.805 Y105.999 E0.00550
G1 X105.623 Y105.817 E0.00550
G1 X105.441 Y105.999 E0.00550
G1 X105.623 Y106.181 E0.00550
G1 X105.441 Y106.363 E0.00550
G1 X105.077 Y105.999 E0.01099
G1 X105.259 Y105.817 E0.00550
G1 X105.077 Y105.635 E0.00550
G1 X104.532 Y106.181 E0.01649
G1 X104.714 Y106.363 E0.00550
G1 X104.896 Y106.181 E0.00550
G1 X105.259 Y106.544 E0.01099
G1 X105.077 Y106.726 E0.00550
G1 X104.896 Y106.544 E0.00550
G1 X104.714 Y106.726 E0.00550
G1 X104.896 Y106.908 E0.00550
G1 X104.714 Y107.090 E0.00550
G1 X104.350 Y106.726 E0.01099
G1 X104.532 Y106.544 E0.00550
G1 X104.350 Y106.363 E0.00550
G1 X103.987 Y106.726 E0.01099
G1 X104.168 Y106.908 E0.00550
G1 X103.987 Y107.090 E0.00550
G1 X103.805 Y106.908 E0.00550
G1 X103.441 Y107.271 E0.01099
G1 X103.623 Y107.453 E0.00550
G1 X103.805 Y107.271 E0.00550
G1 X103.987 Y107.453 E0.00550
G1 X103.805 Y107.635 E0.00550
G1 X103.987 Y107.817 E0.00550
G1 X104.350 Y107.453 E0.01099
G1 X104.168 Y107.272 E0.00550
G1 X104.350 Y107.090 E0.00550
G1 X104.896 Y107.635 E0.01649
G1 X104.714 Y107.817 E0.00550
G1 X104.532 Y107.635 E0.00550
G1 X104.168 Y107.999 E0.01099
G1 X104.350 Y108.180 E0.00550
G1 X104.532 Y107.999 E0.00550
G1 X104.714 Y108.180 E0.00550
G1 X104.532 Y108.362 E0.00550
G1 X104.714 Y108.544 E0.00550
G1 X105.077 Y108.180 E0.01099
G1 X104.896 Y107.999 E0.00550
G1 X105.077 Y107.817 E0.00550
G1 X105.259 Y107.999 E0.00550
G1 X105.623 Y107.635 E0.01099
G1 X105.441 Y107.453 E0.00550
G1 X105.259 Y107.635 E0.00550
G1 X104.896 Y107.271 E0.01099
G1 X105.077 Y107.090 E0.00550
G1 X105.259 Y107.271 E0.00550
G1 X105.441 Y107.090 E0.00550
G1 X105.259 Y106.908 E0.00550
G1 X105.441 Y106.726 E0.00550
G1 X105.805 Y107.090 E0.01099
G1 X105.623 Y107.271 E0.00550
G1 X105.805 Y107.453 E0.00550
G1 X105.986 Y107.271 E0.00550
G1 X106.350 Y107.635 E0.01099
G1 X106.168 Y107.817 E0.00550
G1 X105.986 Y107.635 E0.00550
G1 X105.623 Y107.999 E0.01099
G1 X105.805 Y108.180 E0.00550
G1 X105.986 Y107.999 E0.00550
G1 X106.168 Y108.180 E0.00550
G1 X105.986 Y108.362 E0.00550
G1 X106.168 Y108.544 E0.00550
G1 X106.532 Y108.180 E0.01099
G1 X106.350 Y107.999 E0.00550
G1 X106.532 Y107.817 E0.00550
G1 X106.895 Y108.180 E0.01099
G1 X106.713 Y108.362 E0.00550
G1 X106.895 Y108.544 E0.00550
G1 X107.077 Y108.362 E0.00550
G1 X107.441 Y108.726 E0.01099
G1 X107.259 Y108.908 E0.00550
G1 X107.077 Y108.726 E0.00550
G1 X106.895 Y108.908 E0.00550
G1 X107.077 Y109.089 E0.00550
G1 X106.895 Y109.271 E0.00550
G1 X106.532 Y108.908 E0.01099
G1 X106.713 Y108.726 E0.00550
G1 X106.532 Y108.544 E0.00550
G1 X105.986 Y109.089 E0.01649
G1 X106.168 Y109.271 E0.00550
G1 X106.350 Y109.089 E0.00550
G1 X106.713 Y109.453 E0.01099
G1 X106.532 Y109.635 E0.00550
G1 X106.350 Y109.453 E0.00550
G1 X106.168 Y109.635 E0.00550
G1 X106.350 Y109.816 E0.00550
G1 X106.168 Y109.998 E0.00550
G1 X105.805 Y109.635 E0.01099
G1 X105.986 Y109.453 E0.00550
G1 X105.805 Y109.271 E0.00550
G1 X105.623 Y109.453 E0.00550
G1 X105.259 Y109.089 E0.01099
G1 X105.441 Y108.908 E0.00550
G1 X105.623 Y109.089 E0.00550
G1 X105.986 Y108.726 E0.01099
G1 X105.805 Y108.544 E0.00550
G1 X105.623 Y108.726 E0.00550
G1 X105.441 Y108.544 E0.00550
G1 X105.623 Y108.362 E0.00550
G1 X105.441 Y108.180 E0.00550
G1 X105.077 Y108.544 E0.01099
G1 X105.259 Y108.726 E0.00550
G1 X105.077 Y108.908 E0.00550
G1 X104.896 Y108.726 E0.00550
G1 X104.714 Y108.908 E0.00550
G1 X104.896 Y109.089 E0.00550
G1 X104.714 Y109.271 E0.00550
G1 X104.532 Y109.089 E0.00550
G1 X104.168 Y109.453 E0.01099
G1 X104.350 Y109.635 E0.00550
G1 X104.532 Y109.453 E0.00550
G1 X104.714 Y109.635 E0.00550
G1 X104.532 Y109.816 E0.00550
G1 X104.714 Y109.998 E0.00550
G1 X105.077 Y109.635 E0.01099
G1 X104.896 Y109.453 E0.00550
G1 X105.077 Y109.271 E0.00550
G1 X105.441 Y109.635 E0.01099
G1 X105.259 Y109.816 E0.00550
G1 X105.441 Y109.998 E0.00550
G1 X105.623 Y109.816 E0.00550
G1 X105.986 Y110.180 E0.01099
G1 X105.805 Y110.362 E0.00550
G1 X105.623 Y110.180 E0.00550
G1 X105.441 Y110.362 E0.00550
G1 X105.623 Y110.544 E0.00550
G1 X105.441 Y110.725 E0.00550
G1 X105.077 Y110.362 E0.01099
G1 X105.259 Y110.180 E0.00550
G1 X105.077 Y109.998 E0.00550
G1 X104.532 Y110.544 E0.01649
G1 X104.714 Y110.725 E0.00550
G1 X104.896 Y110.544 E0.00550
G1 X105.259 Y110.907 E0.01099
G1 X105.077 Y111.089 E0.00550
G1 X104.896 Y110.907 E0.00550
G1 X104.714 Y111.089 E0.00550
G1 X104.896 Y111.271 E0.00550
G1 X104.714 Y111.453 E0.00550
G1 X104.350 Y111.089 E0.01099
G1 X104.532 Y110.907 E0.00550
G1 X104.350 Y110.725 E0.00550
G1 X104.168 Y110.907 E0.00550
G1 X103.805 Y110.544 E0.01099
G1 X103.987 Y110.362 E0.00550
G1 X104.168 Y110.544 E0.00550
G1 X104.532 Y110.180 E0.01099
G1 X104.350 Y109.998 E0.00550
G1 X104.168 Y110.180 E0.00550
G1 X103.987 Y109.998 E0.00550
G1 X104.168 Y109.816 E0.00550
G1 X103.987 Y109.635 E0.00550
G1 X103.623 Y109.998 E0.01099
G1 X103.805 Y110.180 E0.00550
G1 X103.623 Y110.362 E0.00550
G1 X103.260 Y109.998 E0.01099
G1 X103.441 Y109.816 E0.00550
G1 X103.260 Y109.635 E0.00550
G1 X103.078 Y109.816 E0.00550
G1 X102.714 Y109.453 E0.01099
G1 X102.896 Y109.271 E0.00550
G1 X103.078 Y109.453 E0.00550
G1 X103.260 Y109.271 E0.00550
G1 X103.078 Y109.089 E0.00550
G1 X103.260 Y108.908 E0.00550
G1 X103.623 Y109.271 E0.01099
G1 X103.441 Y109.453 E0.00550
G1 X103.623 Y109.635 E0.00550
G1 X103.987 Y109.271 E0.01099
G1 X103.805 Y109.089 E0.00550
G1 X103.987 Y108.908 E0.00550
G1 X104.168 Y109.089 E0.00550
G1 X104.532 Y108.726 E0.01099
G1 X104.350 Y108.544 E0.00550
G1 X104.168 Y108.726 E0.00550
G1 X103.987 Y108.544 E0.00550
G1 X104.168 Y108.362 E0.00550
G1 X103.987 Y108.180 E0.00550
G1 X103.623 Y108.544 E0.01099
G1 X103.805 Y108.726 E0.00550
G1 X103.623 Y108.908 E0.00550
G1 X103.078 Y108.362 E0.01649
G1 X103.260 Y108.180 E0.00550
G1 X103.441 Y108.362 E0.00550
G1 X103.805 Y107.999 E0.01099
G1 X103.623 Y107.817 E0.00550
G1 X103.441 Y107.999 E0.00550
G1 X103.260 Y107.817 E0.00550
G1 X103.441 Y107.635 E0.00550
G1 X103.260 Y107.453 E0.00550
G1 X102.896 Y107.817 E0.01099
G1 X103.078 Y107.999 E0.00550
G1 X102.896 Y108.180 E0.00550
G1 X102.714 Y107.999 E0.00550
G1 X102.351 Y108.362 E0.01099
G1 X102.532 Y108.544 E0.00550
G1 X102.714 Y108.362 E0.00550
G1 X103.078 Y108.726 E0.01099
G1 X102.896 Y108.908 E0.00550
