; generated by Slic3r 1.2.9 on 2016-02-12 at 00:45:09

; external perimeters extrusion width = 0.30mm
; perimeters extrusion width = 0.30mm
; infill extrusion width = 0.50mm
; solid infill extrusion width = 0.30mm
; top infill extrusion width = 0.30mm

M107
M190 S50 ; set bed temperature
M201 X1000 Y1000 E600
M109 S210
M92 E161.3
G28
G92 E0.0
G1 X8.0 F2000
G1 Y60.0 E4.0  F1000.0
G1 Y100.0 E8.5  F1000.0
G92 E0.0
G21 ; set units to millimeters
G90 ; use absolute coordinates
M83 ; use relative distances for extrusion
G1 E-1.50000 F1800.00000
G1 Z0.200 F6000.000
G1 X89.968 Y45.470 F6000.000
G1 E1.50000 F1800.00000
G1 E0.15336 F1800.000 ; pressure advance
G1 X90.180 Y45.103 E0.02218 F2400.000
G1 X91.141 Y44.141 E0.07102
G1 X91.257 Y44.074 E0.00699
G1 X92.572 Y43.722 E0.07111
G1 X107.429 Y43.722 E0.77621
G1 X108.743 Y44.074 E0.07107
G1 X108.859 Y44.141 E0.00701
G1 X109.820 Y45.103 E0.07105
G1 X117.249 Y57.969 E0.77621
G1 X117.601 Y59.283 E0.07108
G1 X117.601 Y140.717 E4.25448
G1 X117.249 Y142.031 E0.07108
G1 X109.820 Y154.898 E0.77621
G1 X108.858 Y155.860 E0.07108
G1 X108.743 Y155.926 E0.00697
G1 X107.429 Y156.278 E0.07108
G1 X92.572 Y156.278 E0.77621
G1 X91.258 Y155.926 E0.07107
G1 X91.142 Y155.860 E0.00698
G1 X90.180 Y154.898 E0.07108
G1 X82.751 Y142.031 E0.77621
G1 X82.399 Y140.717 E0.07108
G1 X82.399 Y59.283 E4.25448
G1 X82.751 Y57.969 E0.07108
G1 X89.938 Y45.522 E0.75089
G1 E-0.15336 F1800.000 ; pressure discharge
G1 E-1.50000 F1800.00000
G1 X102.183 Y139.064 F6000.000
G1 E1.50000 F1800.00000
G1 E0.00640 F1800.000 ; pressure advance
G1 X102.699 Y140.650 E0.03565 F1200.000
G1 X102.183 Y142.236 E0.03565
G1 X100.834 Y143.216 E0.03565
G1 X99.166 Y143.216 E0.03565
G1 X97.817 Y142.236 E0.03565
G1 X97.302 Y140.650 E0.03565
G1 X97.817 Y139.064 E0.03565
G1 X99.166 Y138.084 E0.03565
G1 X100.834 Y138.084 E0.03565
G1 X102.135 Y139.029 E0.03437
G1 X101.965 Y139.223 F6000.000
G1 X102.428 Y140.650 E0.03208 F1200.000
G1 X101.965 Y142.077 E0.03208
G1 X100.751 Y142.959 E0.03208
G1 X99.250 Y142.959 E0.03208
G1 X98.036 Y142.077 E0.03208
G1 X97.572 Y140.650 E0.03208
G1 X98.036 Y139.223 E0.03208
G1 X99.250 Y138.341 E0.03208
G1 X100.751 Y138.341 E0.03208
G1 X101.916 Y139.188 E0.03079
G1 X101.746 Y139.382 F6000.000
G1 X102.158 Y140.650 E0.02851 F1200.000
G1 X101.746 Y141.918 E0.02851
G1 X100.667 Y142.702 E0.02851
G1 X99.333 Y142.702 E0.02851
G1 X98.255 Y141.918 E0.02851
G1 X97.842 Y140.650 E0.02851
G1 X98.255 Y139.382 E0.02851
G1 X99.333 Y138.598 E0.02851
G1 X100.667 Y138.598 E0.02851
G1 X101.697 Y139.347 E0.02722
G1 X102.146 Y139.382 F6000.000
G1 E-0.00640 F1800.000 ; pressure discharge
G1 E-1.50000 F1800.00000
G1 X109.864 Y135.014 F6000.000
G1 E1.50000 F1800.00000
G1 X103.484 Y135.014 E0.13638 F1200.000
G1 X102.907 Y134.014 E0.02468
G1 X96.746 Y134.014 E0.13171
G1 X96.168 Y135.014 E0.02468
G1 X90.136 Y135.014 E0.12895
G1 X90.136 Y66.686 E1.46060
G1 X96.168 Y66.686 E0.12895
G1 X96.746 Y67.686 E0.02468
G1 X102.907 Y67.686 E0.13171
G1 X103.484 Y66.686 E0.02468
G1 X109.864 Y66.686 E0.13638
G1 X109.864 Y134.954 E1.45932
G1 E-1.50000 F1800.00000
G1 X96.544 Y133.850 F6000.000
G1 E1.50000 F1800.00000
G1 X96.020 Y134.757 E0.02239 F1200.000
G1 X90.393 Y134.757 E0.12028
G1 X90.393 Y128.443 E0.13497
G1 X93.422 Y128.443 E0.06475
G1 X96.514 Y133.798 E0.13218
G1 X96.247 Y133.850 F6000.000
G1 X95.872 Y134.500 E0.01604 F1200.000
G1 X90.650 Y134.500 E0.11161
G1 X90.650 Y128.700 E0.12398
G1 X93.274 Y128.700 E0.05608
G1 X96.217 Y133.798 E0.12584
G1 X96.553 Y134.107 F6000.000
G1 X96.705 Y133.757 F6000.000
G1 X93.583 Y128.350 E0.13346 F1200.000
G1 X96.705 Y122.943 E0.13346
G1 X102.948 Y122.943 E0.13346
G1 X106.070 Y128.350 E0.13346
G1 X102.948 Y133.757 E0.13346
G1 X96.765 Y133.757 E0.13218
G1 X96.853 Y133.500 F6000.000
G1 X93.880 Y128.350 E0.12712 F1200.000
G1 X96.853 Y123.200 E0.12712
G1 X102.800 Y123.200 E0.12712
G1 X105.773 Y128.350 E0.12712
G1 X102.800 Y133.500 E0.12712
G1 X96.913 Y133.500 E0.12584
G1 X96.477 Y133.637 F6000.000
G1 E-1.50000 F1800.00000
G1 X90.393 Y128.257 F6000.000
G1 E1.50000 F1800.00000
G1 X90.393 Y117.443 E0.23117 F1200.000
G1 X93.422 Y117.443 E0.06475
G1 X96.544 Y122.850 E0.13346
G1 X93.422 Y128.257 E0.13346
G1 X90.453 Y128.257 E0.06346
G1 X90.650 Y128.000 F6000.000
G1 X90.650 Y117.700 E0.22018 F1200.000
G1 X93.274 Y117.700 E0.05608
G1 X96.247 Y122.850 E0.12712
G1 X93.274 Y128.000 E0.12712
G1 X90.710 Y128.000 E0.05479
G1 X90.250 Y128.000 F6000.000
G1 E-1.50000 F1800.00000
G1 X96.705 Y122.757 F6000.000
G1 E1.50000 F1800.00000
G1 X93.583 Y117.350 E0.13346 F1200.000
G1 X96.705 Y111.943 E0.13346
G1 X102.948 Y111.943 E0.13346
G1 X106.070 Y117.350 E0.13346
G1 X102.948 Y122.757 E0.13346
G1 X96.765 Y122.757 E0.13218
G1 X96.853 Y122.500 F6000.000
G1 X93.880 Y117.350 E0.12712 F1200.000
G1 X96.853 Y112.200 E0.12712
G1 X102.800 Y112.200 E0.12712
G1 X105.773 Y117.350 E0.12712
G1 X102.800 Y122.500 E0.12712
G1 X96.913 Y122.500 E0.12584
G1 X96.477 Y122.637 F6000.000
G1 E-1.50000 F1800.00000
G1 X90.393 Y117.257 F6000.000
G1 E1.50000 F1800.00000
G1 X90.393 Y106.443 E0.23117 F1200.000
G1 X93.422 Y106.443 E0.06475
G1 X96.544 Y111.850 E0.13346
G1 X93.422 Y117.257 E0.13346
G1 X90.453 Y117.257 E0.06346
G1 X90.650 Y117.000 F6000.000
G1 X90.650 Y106.700 E0.22018 F1200.000
G1 X93.274 Y106.700 E0.05608
G1 X96.247 Y111.850 E0.12712
G1 X93.274 Y117.000 E0.12712
G1 X90.710 Y117.000 E0.05479
G1 X90.250 Y117.000 F6000.000
G1 E-1.50000 F1800.00000
G1 X96.705 Y111.757 F6000.000
G1 E1.50000 F1800.00000
G1 X93.583 Y106.350 E0.13346 F1200.000
G1 X96.705 Y100.943 E0.13346
G1 X102.948 Y100.943 E0.13346
G1 X106.070 Y106.350 E0.13346
G1 X102.948 Y111.757 E0.13346
G1 X96.765 Y111.757 E0.13218
G1 X96.853 Y111.500 F6000.000
G1 X93.880 Y106.350 E0.12712 F1200.000
G1 X96.853 Y101.200 E0.12712
G1 X102.800 Y101.200 E0.12712
G1 X105.773 Y106.350 E0.12712
G1 X102.800 Y111.500 E0.12712
G1 X96.913 Y111.500 E0.12584
G1 X96.477 Y111.637 F6000.000
G1 E-1.50000 F1800.00000
G1 X93.422 Y106.257 F6000.000
G1 E1.50000 F1800.00000
G1 X90.393 Y106.257 E0.06475 F1200.000
G1 X90.393 Y95.443 E0.23117
G1 X93.422 Y95.443 E0.06475
G1 X96.544 Y100.850 E0.13346
G1 X93.452 Y106.205 E0.13218
G1 X93.274 Y106.000 F6000.000
G1 X90.650 Y106.000 E0.05608 F1200.000
G1 X90.650 Y95.700 E0.22018
G1 X93.274 Y95.700 E0.05608
G1 X96.247 Y100.850 E0.12712
G1 X93.304 Y105.948 E0.12584
G1 X93.204 Y106.394 F6000.000
G1 E-1.50000 F1800.00000
G1 X96.705 Y100.757 F6000.000
G1 E1.50000 F1800.00000
G1 X93.583 Y95.350 E0.13346 F1200.000
G1 X96.705 Y89.943 E0.13346
G1 X102.948 Y89.943 E0.13346
G1 X106.070 Y95.350 E0.13346
G1 X102.948 Y100.757 E0.13346
G1 X96.765 Y100.757 E0.13218
G1 X96.853 Y100.500 F6000.000
G1 X93.880 Y95.350 E0.12712 F1200.000
G1 X96.853 Y90.200 E0.12712
G1 X102.800 Y90.200 E0.12712
G1 X105.773 Y95.350 E0.12712
G1 X102.800 Y100.500 E0.12712
G1 X96.913 Y100.500 E0.12584
G1 X96.477 Y100.637 F6000.000
G1 E-1.50000 F1800.00000
G1 X90.393 Y95.257 F6000.000
G1 E1.50000 F1800.00000
G1 X90.393 Y84.443 E0.23117 F1200.000
G1 X93.422 Y84.443 E0.06475
G1 X96.544 Y89.850 E0.13346
G1 X93.422 Y95.257 E0.13346
G1 X90.453 Y95.257 E0.06346
G1 X90.650 Y95.000 F6000.000
G1 X90.650 Y84.700 E0.22018 F1200.000
G1 X93.274 Y84.700 E0.05608
G1 X96.247 Y89.850 E0.12712
G1 X93.274 Y95.000 E0.12712
G1 X90.710 Y95.000 E0.05479
G1 X90.250 Y95.000 F6000.000
G1 E-1.50000 F1800.00000
G1 X96.705 Y89.757 F6000.000
G1 E1.50000 F1800.00000
G1 X93.583 Y84.350 E0.13346 F1200.000
G1 X96.705 Y78.943 E0.13346
G1 X102.948 Y78.943 E0.13346
G1 X106.070 Y84.350 E0.13346
G1 X102.948 Y89.757 E0.13346
G1 X96.765 Y89.757 E0.13218
G1 X96.853 Y89.500 F6000.000
G1 X93.880 Y84.350 E0.12712 F1200.000
G1 X96.853 Y79.200 E0.12712
G1 X102.800 Y79.200 E0.12712
G1 X105.773 Y84.350 E0.12712
G1 X102.800 Y89.500 E0.12712
G1 X96.913 Y89.500 E0.12584
G1 X96.477 Y89.637 F6000.000
G1 E-1.50000 F1800.00000
G1 X90.393 Y84.257 F6000.000
G1 E1.50000 F1800.00000
G1 X90.393 Y73.443 E0.23117 F1200.000
G1 X93.422 Y73.443 E0.06475
G1 X96.544 Y78.850 E0.13346
G1 X93.422 Y84.257 E0.13346
G1 X90.453 Y84.257 E0.06346
G1 X90.650 Y84.000 F6000.000
G1 X90.650 Y73.700 E0.22018 F1200.000
G1 X93.274 Y73.700 E0.05608
G1 X96.247 Y78.850 E0.12712
G1 X93.274 Y84.000 E0.12712
G1 X90.710 Y84.000 E0.05479
G1 X90.250 Y84.000 F6000.000
G1 E-1.50000 F1800.00000
G1 X90.393 Y73.257 F6000.000
G1 E1.50000 F1800.00000
G1 X90.393 Y66.943 E0.13497 F1200.000
G1 X96.020 Y66.943 E0.12028
G1 X96.544 Y67.850 E0.02239
G1 X93.422 Y73.257 E0.13346
G1 X90.453 Y73.257 E0.06346
G1 X90.650 Y73.000 F6000.000
G1 X90.650 Y67.200 E0.12398 F1200.000
G1 X95.872 Y67.200 E0.11161
G1 X96.247 Y67.850 E0.01604
G1 X93.274 Y73.000 E0.12712
G1 X90.710 Y73.000 E0.05479
G1 X90.250 Y73.000 F6000.000
G1 E-1.50000 F1800.00000
G1 X96.705 Y78.757 F6000.000
G1 E1.50000 F1800.00000
G1 X93.583 Y73.350 E0.13346 F1200.000
G1 X96.705 Y67.943 E0.13346
G1 X102.948 Y67.943 E0.13346
G1 X106.070 Y73.350 E0.13346
G1 X102.948 Y78.757 E0.13346
G1 X96.765 Y78.757 E0.13218
G1 X96.853 Y78.500 F6000.000
G1 X93.880 Y73.350 E0.12712 F1200.000
G1 X96.853 Y68.200 E0.12712
G1 X102.800 Y68.200 E0.12712
G1 X105.773 Y73.350 E0.12712
G1 X102.800 Y78.500 E0.12712
G1 X96.913 Y78.500 E0.12584
G1 X96.477 Y78.637 F6000.000
G1 E-1.50000 F1800.00000
G1 X106.231 Y73.257 F6000.000
G1 E1.50000 F1800.00000
G1 X103.109 Y67.850 E0.13346 F1200.000
G1 X103.633 Y66.943 E0.02239
G1 X109.607 Y66.943 E0.12771
G1 X109.607 Y73.257 E0.13497
G1 X106.291 Y73.257 E0.07089
G1 X106.379 Y73.000 F6000.000
G1 X103.406 Y67.850 E0.12712 F1200.000
G1 X103.781 Y67.200 E0.01604
G1 X109.350 Y67.200 E0.11904
G1 X109.350 Y73.000 E0.12398
G1 X106.439 Y73.000 E0.06222
G1 X106.004 Y73.137 F6000.000
G1 X106.231 Y73.443 F6000.000
G1 X109.607 Y73.443 E0.07217 F1200.000
G1 X109.607 Y84.257 E0.23117
G1 X106.231 Y84.257 E0.07217
G1 X103.109 Y78.850 E0.13346
G1 X106.201 Y73.495 E0.13218
G1 X106.379 Y73.700 F6000.000
G1 X109.350 Y73.700 E0.06350 F1200.000
G1 X109.350 Y84.000 E0.22018
G1 X106.379 Y84.000 E0.06350
G1 X103.406 Y78.850 E0.12712
G1 X106.349 Y73.752 E0.12584
G1 X106.449 Y73.306 F6000.000
G1 E-1.50000 F1800.00000
G1 X106.231 Y84.443 F6000.000
G1 E1.50000 F1800.00000
G1 X109.607 Y84.443 E0.07217 F1200.000
G1 X109.607 Y95.257 E0.23117
G1 X106.231 Y95.257 E0.07217
G1 X103.109 Y89.850 E0.13346
G1 X106.201 Y84.495 E0.13218
G1 X106.379 Y84.700 F6000.000
G1 X109.350 Y84.700 E0.06350 F1200.000
G1 X109.350 Y95.000 E0.22018
G1 X106.379 Y95.000 E0.06350
G1 X103.406 Y89.850 E0.12712
G1 X106.349 Y84.752 E0.12584
G1 X106.449 Y84.306 F6000.000
G1 E-1.50000 F1800.00000
G1 X106.231 Y95.443 F6000.000
G1 E1.50000 F1800.00000
G1 X109.607 Y95.443 E0.07217 F1200.000
G1 X109.607 Y106.257 E0.23117
G1 X106.231 Y106.257 E0.07217
G1 X103.109 Y100.850 E0.13346
G1 X106.201 Y95.495 E0.13218
G1 X106.379 Y95.700 F6000.000
G1 X109.350 Y95.700 E0.06350 F1200.000
G1 X109.350 Y106.000 E0.22018
G1 X106.379 Y106.000 E0.06350
G1 X103.406 Y100.850 E0.12712
G1 X106.349 Y95.752 E0.12584
G1 X106.449 Y95.306 F6000.000
G1 E-1.50000 F1800.00000
G1 X106.231 Y106.443 F6000.000
G1 E1.50000 F1800.00000
G1 X109.607 Y106.443 E0.07217 F1200.000
G1 X109.607 Y117.257 E0.23117
G1 X106.231 Y117.257 E0.07217
G1 X103.109 Y111.850 E0.13346
G1 X106.201 Y106.495 E0.13218
G1 X106.379 Y106.700 F6000.000
G1 X109.350 Y106.700 E0.06350 F1200.000
G1 X109.350 Y117.000 E0.22018
G1 X106.379 Y117.000 E0.06350
G1 X103.406 Y111.850 E0.12712
G1 X106.349 Y106.752 E0.12584
G1 X106.449 Y106.306 F6000.000
G1 E-1.50000 F1800.00000
G1 X106.231 Y117.443 F6000.000
G1 E1.50000 F1800.00000
G1 X109.607 Y117.443 E0.07217 F1200.000
G1 X109.607 Y128.257 E0.23117
G1 X106.231 Y128.257 E0.07217
G1 X103.109 Y122.850 E0.13346
G1 X106.201 Y117.495 E0.13218
G1 X106.379 Y117.700 F6000.000
G1 X109.350 Y117.700 E0.06350 F1200.000
G1 X109.350 Y128.000 E0.22018
G1 X106.379 Y128.000 E0.06350
G1 X103.406 Y122.850 E0.12712
G1 X106.349 Y117.752 E0.12584
G1 X106.449 Y117.306 F6000.000
G1 E-1.50000 F1800.00000
G1 X106.231 Y128.443 F6000.000
G1 E1.50000 F1800.00000
G1 X109.607 Y128.443 E0.07217 F1200.000
G1 X109.607 Y134.757 E0.13497
G1 X103.633 Y134.757 E0.12771
G1 X103.109 Y133.850 E0.02239
G1 X106.201 Y128.495 E0.13218
G1 X106.379 Y128.700 F6000.000
G1 X109.350 Y128.700 E0.06350 F1200.000
G1 X109.350 Y134.500 E0.12398
G1 X103.781 Y134.500 E0.11904
G1 X103.406 Y133.850 E0.01604
G1 X106.349 Y128.752 E0.12584
G1 X106.449 Y128.306 F6000.000
G1 E-1.50000 F1800.00000
G1 X100.834 Y61.916 F6000.000
G1 E1.50000 F1800.00000
G1 X99.166 Y61.916 E0.03565 F1200.000
G1 X97.817 Y60.936 E0.03565
G1 X97.740 Y60.697 E0.00537
G1 X97.302 Y59.350 E0.03028
G1 X97.817 Y57.764 E0.03565
G1 X99.166 Y56.784 E0.03565
G1 X100.834 Y56.784 E0.03565
G1 X102.183 Y57.764 E0.03565
G1 X102.699 Y59.350 E0.03565
G1 X102.183 Y60.936 E0.03565
G1 X100.883 Y61.881 E0.03437
G1 X100.751 Y61.659 F6000.000
G1 X99.250 Y61.659 E0.03208 F1200.000
G1 X98.036 Y60.777 E0.03208
G1 X97.984 Y60.618 E0.00358
G1 X97.572 Y59.350 E0.02850
G1 X98.036 Y57.923 E0.03208
G1 X99.250 Y57.041 E0.03208
G1 X100.751 Y57.041 E0.03208
G1 X101.965 Y57.923 E0.03208
G1 X102.428 Y59.350 E0.03208
G1 X101.965 Y60.777 E0.03208
G1 X100.799 Y61.624 E0.03079
G1 X100.667 Y61.402 F6000.000
G1 X99.333 Y61.402 E0.02851 F1200.000
G1 X98.255 Y60.618 E0.02851
G1 X97.842 Y59.350 E0.02851
G1 X98.255 Y58.082 E0.02851
G1 X99.333 Y57.298 E0.02851
G1 X100.667 Y57.298 E0.02851
G1 X101.746 Y58.082 E0.02851
G1 X102.158 Y59.350 E0.02851
G1 X101.746 Y60.618 E0.02851
G1 X100.716 Y61.367 E0.02722
G1 X100.543 Y61.783 F6000.000
G1 E-1.50000 F1800.00000
G1 X92.878 Y47.014 F6000.000
G1 E1.50000 F1800.00000
G1 X107.123 Y47.016 E0.30451 F1200.000
G1 X114.309 Y59.461 E0.30719
G1 X114.309 Y140.539 E1.73313
G1 X107.122 Y152.986 E0.30723
G1 X92.878 Y152.986 E0.30449
G1 X85.692 Y140.539 E0.30723
G1 X85.692 Y59.461 E1.73313
G1 X92.848 Y47.066 E0.30595
G1 X92.730 Y46.757 F6000.000
G1 X107.272 Y46.759 E0.31086 F1200.000
G1 X114.566 Y59.393 E0.31183
G1 X114.566 Y140.608 E1.73608
G1 X107.271 Y153.243 E0.31188
G1 X92.730 Y153.243 E0.31083
G1 X85.435 Y140.608 E0.31188
G1 X85.435 Y59.393 E1.73608
G1 X92.700 Y46.809 E0.31060
G1 X92.566 Y46.527 F6000.000
G1 X92.612 Y46.500 E0.00113 F1200.000
G1 X107.392 Y46.502 E0.31594
G1 X107.434 Y46.527 E0.00105
G1 X114.823 Y59.324 E0.31587
G1 X114.823 Y140.677 E1.73902
G1 X107.434 Y153.474 E0.31587
G1 X107.389 Y153.500 E0.00113
G1 X92.612 Y153.500 E0.31587
G1 X92.566 Y153.474 E0.00113
G1 X85.178 Y140.677 E0.31587
G1 X85.178 Y59.324 E1.73902
G1 X92.536 Y46.579 E0.31459
G1 X92.616 Y46.545 F6000.000
G1 X93.027 Y47.266 F6000.000
G1 E0.01638 F1800.000 ; pressure advance
G1 X100.000 Y54.240 E0.21082 F1920.000
G1 X106.972 Y47.268 E0.21076
G1 X107.164 Y47.590 F6000.000
G1 X100.000 Y54.754 E0.21657 F1920.000
G1 X92.836 Y47.590 E0.21657
G1 X92.648 Y47.916 F6000.000
G1 X100.000 Y55.268 E0.22225 F1920.000
G1 X107.352 Y47.916 E0.22225
G1 X107.540 Y48.242 F6000.000
G1 X100.000 Y55.782 E0.22794 F1920.000
G1 X92.460 Y48.242 E0.22794
G1 X92.272 Y48.568 F6000.000
G1 X100.000 Y56.297 E0.23363 F1920.000
G1 X107.729 Y48.568 E0.23363
G1 X107.917 Y48.894 F6000.000
G1 X100.279 Y56.532 E0.23089 F1920.000
G1 X100.793 Y56.532 F6000.000
G1 X108.105 Y49.220 E0.22104 F1920.000
G1 X108.293 Y49.546 F6000.000
G1 X101.143 Y56.697 E0.21617 F1920.000
G1 X101.440 Y56.913 F6000.000
G1 X108.481 Y49.872 E0.21285 F1920.000
G1 X108.670 Y50.198 F6000.000
G1 X101.738 Y57.129 E0.20954 F1920.000
G1 X102.036 Y57.346 F6000.000
G1 X108.858 Y50.524 E0.20622 F1920.000
G1 X109.046 Y50.850 F6000.000
G1 X102.334 Y57.562 E0.20291 F1920.000
G1 X102.497 Y57.913 F6000.000
G1 X109.234 Y51.176 E0.20368 F1920.000
G1 X109.422 Y51.502 F6000.000
G1 X102.623 Y58.302 E0.20556 F1920.000
G1 X102.749 Y58.690 F6000.000
G1 X109.611 Y51.828 E0.20743 F1920.000
G1 X109.799 Y52.154 F6000.000
G1 X102.875 Y59.078 E0.20931 F1920.000
G1 X102.890 Y59.577 F6000.000
G1 X109.987 Y52.480 E0.21455 F1920.000
G1 X110.175 Y52.806 F6000.000
G1 X102.642 Y60.339 E0.22772 F1920.000
G1 E-0.01638 F1800.000 ; pressure discharge
G1 E-1.50000 F1800.00000
G1 X100.813 Y62.168 F6000.000
G1 E1.50000 F1800.00000
G1 X100.000 Y62.981 E0.02456 F1920.000
